!!!system-decoration: \{(s1,s2)\}s3,s4\
!!!OTL: AIN'T_MISBEHAVIN'
**kern	**kern	**kern	**kern	**mxhm
*part3	*part2	*part1	*part1	*part1
*staff4	*staff3	*staff2	*staff1	*
*I'Contrabass'	*I'Drumset'	*'IPiano'	*	*
*I'Cb.	*I'D. Set	*I'Pno.	*	*
*clefF4	*clefX	*clefF4	*clefG2	*
*k[b-e-a-]	*k[]	*k[b-e-a-]	*k[b-e-a-]	*
*C: 	*C:	*C:	*C:	*C:
*M4/4	*M4/4	*M4/4	*M4/4	*
*MM120	*MM120	*MM120	*MM120	*
*SSSwing	*SSSwing	*SSSwing	*SSSwing	*
=1	=1	=1	=1	=1
*	*^	*^	*	*
*	*head:regular	*head:x	*	*	*	*
!	!	!	!	!	!LO:TX:a:t=[quarter]=120.0	!
!	!	!	!	!	!LO:TX:a:t=Swing	!
4CC	4re	12Ree/	4E A	1ryy	4d g	C k
.	.	.	.	.	.	.
.	.	12ree	.	.	.	.
.	.	.	.	.	.	.
.	.	12ree	.	.	.	.
.	.	.	.	.	.	.
4GGG	4re	12Ree/	4r	.	4r	.
.	.	.	.	.	.	.
.	.	12ree	.	.	.	.
.	.	.	.	.	.	.
.	.	12ree	.	.	.	.
.	.	.	.	.	.	.
4CC#	4re	12Ree/	4r	.	4r	A U
.	.	.	.	.	.	.
.	.	12ree	.	.	.	.
.	.	.	.	.	.	.
.	.	12ree	.	.	.	.
.	.	.	.	.	.	.
6AAA	4re	12Ree/	4r	.	4r	.
.	.	.	.	.	.	.
.	.	12ree	.	.	.	.
.	.	.	.	.	.	.
12r	.	12ree	.	.	.	.
.	.	.	.	.	.	.
=2	=2	=2	=2	=2	=2	=2
*	*head:regular	*head:x	*	*	*	*
4FFF	4re	12Ree/	4r	1ryy	4r	D a
.	.	.	.	.	.	.
.	.	12ree	.	.	.	.
.	.	.	.	.	.	.
.	.	12ree	.	.	.	.
.	.	.	.	.	.	.
4CC	4re	12Ree/	4r	.	4r	.
.	.	.	.	.	.	.
.	.	12ree	.	.	.	.
.	.	.	.	.	.	.
.	.	12ree	.	.	.	.
.	.	.	.	.	.	.
4CC#	4re	12Ree/	4E A B	.	4g#	F+ i
.	.	.	.	.	.	.
.	.	12ree	.	.	.	.
.	.	.	.	.	.	.
.	.	12ree	.	.	.	.
.	.	.	.	.	.	.
8.DD#	4re	12Ree/	4r	.	4r	B 9
.	.	.	.	.	.	.
.	.	12ree	.	.	.	.
.	.	.	.	.	.	.
.	.	12ree	.	.	.	.
16r	.	.	.	.	.	.
=3	=3	=3	=3	=3	=3	=3
*	*head:regular	*head:x	*	*	*	*
8.GG	12Rf\	12Ree/	4r	1ryy	4r	C k
.	.	.	.	.	.	.
.	12re	12ree	.	.	.	.
.	.	.	.	.	.	.
.	12re	12ree	.	.	.	.
16r	.	.	.	.	.	.
4EE	4re	12Ree/	4r	.	4r	.
.	.	.	.	.	.	.
.	.	12ree	.	.	.	.
.	.	.	.	.	.	.
.	.	12ree	.	.	.	.
.	.	.	.	.	.	.
8CC	4re	12Ree/	4D G#	.	4c e	E q
.	.	.	.	.	.	.
.	.	12ree	.	.	.	.
8r	.	.	.	.	.	.
.	.	12ree	.	.	.	.
.	.	.	.	.	.	.
4GGG#	12Rf\	16Ree/	4r	.	4r	.
.	.	16ree	.	.	.	.
.	12re	.	.	.	.	.
.	.	8ree	.	.	.	.
.	12re	.	.	.	.	.
.	.	.	.	.	.	.
=4	=4	=4	=4	=4	=4	=4
*	*head:regular	*head:x	*	*	*	*
4CC	4re	12Ree/	4r	1ryy	4r	F k
.	.	.	.	.	.	.
.	.	12ree	.	.	.	.
.	.	.	.	.	.	.
.	.	12ree	.	.	.	.
.	.	.	.	.	.	.
4FFF#	4re	12Ree/	4r	.	4r	.
.	.	.	.	.	.	.
.	.	12ree	.	.	.	.
.	.	.	.	.	.	.
.	.	12ree	.	.	.	.
.	.	.	.	.	.	.
4FFF	4re	12Ree/	4r	.	4r	F Z
.	.	.	.	.	.	.
.	.	12ree	.	.	.	.
.	.	.	.	.	.	.
.	.	12ree	.	.	.	.
.	.	.	.	.	.	.
4EEE	4re	12Ree/	4D G#	.	4c g	.
.	.	.	.	.	.	.
.	.	12ree	.	.	.	.
.	.	.	.	.	.	.
.	.	12ree	.	.	.	.
.	.	.	.	.	.	.
=5	=5	=5	=5	=5	=5	=5
*	*head:regular	*head:x	*	*	*	*
6EEE	4re	16Ree/	4r	1ryy	4r	C k
.	.	16ree	.	.	.	.
.	.	.	.	.	.	.
.	.	8ree	.	.	.	.
12r	.	.	.	.	.	.
.	.	.	.	.	.	.
8.DD	4re	16Ree/	4r	.	4r	.
.	.	16ree	.	.	.	.
.	.	.	.	.	.	.
.	.	8ree	.	.	.	.
.	.	.	.	.	.	.
16r	.	.	.	.	.	.
4AA	4re	16Ree/	4C# G B	.	4e	A 9
.	.	16ree	.	.	.	.
.	.	.	.	.	.	.
.	.	8ree	.	.	.	.
.	.	.	.	.	.	.
.	.	.	.	.	.	.
4C#	4re	16Ree/	4r	.	4r	.
.	.	16ree	.	.	.	.
.	.	.	.	.	.	.
.	.	8ree	.	.	.	.
.	.	.	.	.	.	.
.	.	.	.	.	.	.
=6	=6	=6	=6	=6	=6	=6
*	*head:regular	*head:x	*	*	*	*
8D	4re	16Ree/	4r	1ryy	4r	D h
.	.	16ree	.	.	.	.
.	.	.	.	.	.	.
8r	.	8ree	.	.	.	.
.	.	.	.	.	.	.
.	.	.	.	.	.	.
4GG#	4re	16Ree/	4r	.	4r	.
.	.	16ree	.	.	.	.
.	.	.	.	.	.	.
.	.	8ree	.	.	.	.
.	.	.	.	.	.	.
.	.	.	.	.	.	.
4GG	4re	16Ree/	6F B	.	6d a dd aa	G 9
.	.	16ree	.	.	.	.
.	.	.	.	.	.	.
.	.	8ree	.	.	.	.
.	.	.	12r	.	12r	.
.	.	.	.	.	.	.
6D	4re	16Ree/	4r	.	4r	.
.	.	16ree	.	.	.	.
.	.	.	.	.	.	.
.	.	8ree	.	.	.	.
12r	.	.	.	.	.	.
.	.	.	.	.	.	.
=7	=7	=7	=7	=7	=7	=7
*	*head:regular	*head:x	*	*	*	*
4BBB	4re	16Ree/	4r	1ryy	4r	E U
.	.	16ree	.	.	.	.
.	.	.	.	.	.	.
.	.	8ree	.	.	.	.
.	.	.	.	.	.	.
.	.	.	.	.	.	.
4FFF#	4re	16Ree/	4r	.	4r	.
.	.	16ree	.	.	.	.
.	.	.	.	.	.	.
.	.	8ree	.	.	.	.
.	.	.	.	.	.	.
.	.	.	.	.	.	.
4EEE	16Rf\	16Ree/	4C# G B	.	4e	A 9
.	16re	16ree	.	.	.	.
.	.	.	.	.	.	.
.	8re	8ree	.	.	.	.
.	.	.	.	.	.	.
.	.	.	.	.	.	.
4AAA	4re	16Ree/	4r	.	4r	.
.	.	16ree	.	.	.	.
.	.	.	.	.	.	.
.	.	8ree	.	.	.	.
.	.	.	.	.	.	.
.	.	.	.	.	.	.
=8	=8	=8	=8	=8	=8	=8
*	*head:regular	*head:x	*	*	*	*
4DD	4re	16Ree/	4r	1ryy	4r	D U
.	.	16ree	.	.	.	.
.	.	.	.	.	.	.
.	.	8ree	.	.	.	.
.	.	.	.	.	.	.
.	.	.	.	.	.	.
4CC	4re	16Ree/	4r	.	4c f# b ee	.
.	.	16ree	.	.	.	.
.	.	.	.	.	.	.
.	.	8ree	.	.	.	.
.	.	.	.	.	.	.
.	.	.	.	.	.	.
8GGG	4re	16Ree/	4F A B	.	4e g dd gg	G U
.	.	16ree	.	.	.	.
.	.	.	.	.	.	.
8r	.	8ree	.	.	.	.
.	.	.	.	.	.	.
.	.	.	.	.	.	.
4r	4re	16Ree/	4r	.	4r	.
.	.	16ree	.	.	.	.
.	.	.	.	.	.	.
.	.	8ree	.	.	.	.
.	.	.	.	.	.	.
.	.	.	.	.	.	.
=9	=9	=9	=9	=9	=9	=9
*	*head:regular	*head:x	*	*	*	*
4CC	4re	4ree	4r	1ryy	4r	C k
.	.	.	.	.	.	.
.	.	.	.	.	.	.
.	.	.	.	.	.	.
.	.	.	.	.	.	.
.	.	.	.	.	.	.
8.DD	4re	12Ree/	4r	.	4r	.
.	.	.	.	.	.	.
.	.	12ree	.	.	.	.
.	.	.	.	.	.	.
.	.	12ree	.	.	.	.
16r	.	.	.	.	.	.
6EE	4re	12Ree/	4r	.	4r	A U
.	.	.	.	.	.	.
.	.	12ree	.	.	.	.
.	.	.	.	.	.	.
12r	.	12ree	.	.	.	.
.	.	.	.	.	.	.
4AA	4re	12Ree/	4r	.	4r	.
.	.	.	.	.	.	.
.	.	12ree	.	.	.	.
.	.	.	.	.	.	.
.	.	12ree	.	.	.	.
.	.	.	.	.	.	.
=10	=10	=10	=10	=10	=10	=10
*	*head:regular	*head:x	*	*	*	*
4FFF	12Rf\	12Ree/	4r	1ryy	4r	D h
.	.	.	.	.	.	.
.	12re	12ree	.	.	.	.
.	.	.	.	.	.	.
.	12re	12ree	.	.	.	.
.	.	.	.	.	.	.
4AAA	4re	12Ree/	4r	.	4r	.
.	.	.	.	.	.	.
.	.	12ree	.	.	.	.
.	.	.	.	.	.	.
.	.	12ree	.	.	.	.
.	.	.	.	.	.	.
4CC#	12Rf\	12Ree/	6A	.	6e f# cc#	F+ b
.	.	.	.	.	.	.
.	12re	12ree	.	.	.	.
.	.	.	.	.	.	.
.	12re	12ree	12r	.	12r	.
.	.	.	.	.	.	.
8.FFF	4re	12Ree/	4r	.	4r	B p
.	.	.	.	.	.	.
.	.	12ree	.	.	.	.
.	.	.	.	.	.	.
.	.	12ree	.	.	.	.
16r	.	.	.	.	.	.
=11	=11	=11	=11	=11	=11	=11
*	*head:regular	*head:x	*	*	*	*
8EEE	12Rf\	12Ree/	4r	1ryy	4r	C k
.	.	.	.	.	.	.
.	12re	12ree	.	.	.	.
8r	.	.	.	.	.	.
.	12re	12ree	.	.	.	.
.	.	.	.	.	.	.
4AAA	4re	12Ree/	4r	.	4r	.
.	.	.	.	.	.	.
.	.	12ree	.	.	.	.
.	.	.	.	.	.	.
.	.	12ree	.	.	.	.
.	.	.	.	.	.	.
4CC	4re	12Ree/	4r	.	4r	E q
.	.	.	.	.	.	.
.	.	12ree	.	.	.	.
.	.	.	.	.	.	.
.	.	12ree	.	.	.	.
.	.	.	.	.	.	.
4EE	4re	12Ree/	4r	.	4r	.
.	.	.	.	.	.	.
.	.	12ree	.	.	.	.
.	.	.	.	.	.	.
.	.	12ree	.	.	.	.
.	.	.	.	.	.	.
=12	=12	=12	=12	=12	=12	=12
*	*head:regular	*head:x	*	*	*	*
4AA	12Rf\	12Ree/	6A	1ryy	6d g cc	F k
.	.	.	.	.	.	.
.	12re	12ree	.	.	.	.
.	.	.	.	.	.	.
.	12re	12ree	12r	.	12r	.
.	.	.	.	.	.	.
4GG	4re	12Ree/	12A	.	12d g cc	.
.	.	.	.	.	.	.
.	.	12ree	12r	.	12r	.
.	.	.	.	.	.	.
.	.	12ree	12r	.	12r	.
.	.	.	.	.	.	.
4CC	12Rf\	12Ree/	4r	.	4r	F Z
.	.	.	.	.	.	.
.	12re	12ree	.	.	.	.
.	.	.	.	.	.	.
.	12re	12ree	.	.	.	.
.	.	.	.	.	.	.
4GGG#	12Rf\	16Ree/	4r	.	4r	.
.	.	16ree	.	.	.	.
.	12re	.	.	.	.	.
.	.	8ree	.	.	.	.
.	12re	.	.	.	.	.
.	.	.	.	.	.	.
=13	=13	=13	=13	=13	=13	=13
*	*head:regular	*head:x	*	*	*	*
6EEE	4re	12Ree/	4r	1ryy	4r	C k
.	.	.	.	.	.	.
.	.	12ree	.	.	.	.
.	.	.	.	.	.	.
12r	.	12ree	.	.	.	.
.	.	.	.	.	.	.
8.GGG#	4re	12Ree/	4E A	.	4d g	.
.	.	.	.	.	.	.
.	.	12ree	.	.	.	.
.	.	.	.	.	.	.
.	.	12ree	.	.	.	.
16r	.	.	.	.	.	.
4AAA	4re	12Ree/	4r	.	4r	A 9
.	.	.	.	.	.	.
.	.	12ree	.	.	.	.
.	.	.	.	.	.	.
.	.	12ree	.	.	.	.
.	.	.	.	.	.	.
4CC#	4re	16Ree/	4r	.	4r	.
.	.	16ree	.	.	.	.
.	.	.	.	.	.	.
.	.	8ree	.	.	.	.
.	.	.	.	.	.	.
.	.	.	.	.	.	.
=14	=14	=14	=14	=14	=14	=14
*	*head:regular	*head:x	*	*	*	*
8DD	4re	12Ree/	4r	1ryy	4r	D a
.	.	.	.	.	.	.
.	.	12ree	.	.	.	.
8r	.	.	.	.	.	.
.	.	12ree	.	.	.	.
.	.	.	.	.	.	.
4AAA	4re	12Ree/	4r	.	4r	.
.	.	.	.	.	.	.
.	.	12ree	.	.	.	.
.	.	.	.	.	.	.
.	.	12ree	.	.	.	.
.	.	.	.	.	.	.
4FF#	4re	12Ree/	6E A	.	6c# f#	F+ b
.	.	.	.	.	.	.
.	.	12ree	.	.	.	.
.	.	.	.	.	.	.
.	.	12ree	12r	.	12r	.
.	.	.	.	.	.	.
6DD#	4re	16Ree/	4r	.	4r	B 7
.	.	16ree	.	.	.	.
.	.	.	.	.	.	.
.	.	8ree	.	.	.	.
12r	.	.	.	.	.	.
.	.	.	.	.	.	.
=15	=15	=15	=15	=15	=15	=15
*	*head:regular	*head:x	*	*	*	*
4C	4re	12Ree/	4C E A	1ryy	4c	C 6
.	.	.	.	.	.	.
.	.	12ree	.	.	.	.
.	.	.	.	.	.	.
.	.	12ree	.	.	.	.
.	.	.	.	.	.	.
4AA	4re	12Ree/	4r	.	4r	.
.	.	.	.	.	.	.
.	.	12ree	.	.	.	.
.	.	.	.	.	.	.
.	.	12ree	.	.	.	.
.	.	.	.	.	.	.
4FF	4re	12Ree/	4r	.	4r	F k
.	.	.	.	.	.	.
.	.	12ree	.	.	.	.
.	.	.	.	.	.	.
.	.	12ree	.	.	.	.
.	.	.	.	.	.	.
4C	4re	12Ree/	4r	.	4r	F Z
.	.	.	.	.	.	.
.	.	12ree	.	.	.	.
.	.	.	.	.	.	.
.	.	12ree	.	.	.	.
.	.	.	.	.	.	.
=16	=16	=16	=16	=16	=16	=16
*	*head:regular	*head:x	*	*	*	*
4CC	4re	12Ree/	4r	1ryy	4r	C k
.	.	.	.	.	.	.
.	.	12ree	.	.	.	.
.	.	.	.	.	.	.
.	.	12ree	.	.	.	.
.	.	.	.	.	.	.
4FFF	4re	12Ree/	6E A	.	6d g	.
.	.	.	.	.	.	.
.	.	12ree	.	.	.	.
.	.	.	.	.	.	.
.	.	12ree	12r	.	12r	.
.	.	.	.	.	.	.
8EEE	4re	4ree	4D G#	.	4c# f#	E U
.	.	.	.	.	.	.
.	.	.	.	.	.	.
8r	.	.	.	.	.	.
.	.	.	.	.	.	.
.	.	.	.	.	.	.
4r	4re	16Ree/	4r	.	4r	.
.	.	16ree	.	.	.	.
.	.	.	.	.	.	.
.	.	8ree	.	.	.	.
.	.	.	.	.	.	.
.	.	.	.	.	.	.
=17	=17	=17	=17	=17	=17	=17
*	*head:regular	*head:x	*	*	*	*
4AAA	4re	4ree	4r	1ryy	4r	A j
.	.	.	.	.	.	.
.	.	.	.	.	.	.
.	.	.	.	.	.	.
.	.	.	.	.	.	.
.	.	.	.	.	.	.
4GGG#	4re	16Ree/	4r	.	4r	.
.	.	16ree	.	.	.	.
.	.	.	.	.	.	.
.	.	8ree	.	.	.	.
.	.	.	.	.	.	.
.	.	.	.	.	.	.
6AAA	4re	4ree	4C F# A	.	4e a	.
.	.	.	.	.	.	.
.	.	.	.	.	.	.
.	.	.	.	.	.	.
12r	.	.	.	.	.	.
.	.	.	.	.	.	.
4EE	4re	16Ree/	4r	.	4r	.
.	.	16ree	.	.	.	.
.	.	.	.	.	.	.
.	.	8ree	.	.	.	.
.	.	.	.	.	.	.
.	.	.	.	.	.	.
=18	=18	=18	=18	=18	=18	=18
*	*head:regular	*head:x	*	*	*	*
4CC	4re	4ree	4r	1ryy	4r	F 9
.	.	.	.	.	.	.
.	.	.	.	.	.	.
.	.	.	.	.	.	.
.	.	.	.	.	.	.
.	.	.	.	.	.	.
4DD#	4re	16Ree/	4r	.	4r	.
.	.	16ree	.	.	.	.
.	.	.	.	.	.	.
.	.	8ree	.	.	.	.
.	.	.	.	.	.	.
.	.	.	.	.	.	.
4AA	4re	4ree	6D# A	.	6c g	.
.	.	.	.	.	.	.
.	.	.	.	.	.	.
.	.	.	.	.	.	.
.	.	.	12r	.	12r	.
.	.	.	.	.	.	.
8.AAA#	4re	16Ree/	4r	.	4r	.
.	.	16ree	.	.	.	.
.	.	.	.	.	.	.
.	.	8ree	.	.	.	.
.	.	.	.	.	.	.
16r	.	.	.	.	.	.
=19	=19	=19	=19	=19	=19	=19
*	*head:regular	*head:x	*	*	*	*
8AAA	4re	4ree	4r	1ryy	4r	D 9
.	.	.	.	.	.	.
.	.	.	.	.	.	.
8r	.	.	.	.	.	.
.	.	.	.	.	.	.
.	.	.	.	.	.	.
8.CC	4re	16Ree/	4r	.	4r	.
.	.	16ree	.	.	.	.
.	.	.	.	.	.	.
.	.	8ree	.	.	.	.
.	.	.	.	.	.	.
16r	.	.	.	.	.	.
4DD	4re	4ree	4r	.	4c f# a ee	.
.	.	.	.	.	.	.
.	.	.	.	.	.	.
.	.	.	.	.	.	.
.	.	.	.	.	.	.
.	.	.	.	.	.	.
4FF#	4re	16Ree/	4r	.	4r	.
.	.	16ree	.	.	.	.
.	.	.	.	.	.	.
.	.	8ree	.	.	.	.
.	.	.	.	.	.	.
.	.	.	.	.	.	.
=20	=20	=20	=20	=20	=20	=20
*	*head:regular	*head:x	*	*	*	*
4EEE	4re	4ree	4G	1ryy	4c# a ee aa	A 7
.	.	.	.	.	.	.
.	.	.	.	.	.	.
.	.	.	.	.	.	.
.	.	.	.	.	.	.
.	.	.	.	.	.	.
4CC	4re	16Ree/	4r	.	4r	.
.	.	16ree	.	.	.	.
.	.	.	.	.	.	.
.	.	8ree	.	.	.	.
.	.	.	.	.	.	.
.	.	.	.	.	.	.
4CC#	4re	4ree	4G	.	4c# a ee aa	.
.	.	.	.	.	.	.
.	.	.	.	.	.	.
.	.	.	.	.	.	.
.	.	.	.	.	.	.
.	.	.	.	.	.	.
4EE	4re	16Ree/	4r	.	4r	.
.	.	16ree	.	.	.	.
.	.	.	.	.	.	.
.	.	8ree	.	.	.	.
.	.	.	.	.	.	.
.	.	.	.	.	.	.
=21	=21	=21	=21	=21	=21	=21
*	*head:regular	*head:x	*	*	*	*
4GG	4re	4ree	6B	1ryy	6g dd ee gg	G 6
.	.	.	.	.	.	.
.	.	.	.	.	.	.
.	.	.	.	.	.	.
.	.	.	12r	.	12r	.
.	.	.	.	.	.	.
4CC	4re	16Ree/	4r	.	4r	.
.	.	16ree	.	.	.	.
.	.	.	.	.	.	.
.	.	8ree	.	.	.	.
.	.	.	.	.	.	.
.	.	.	.	.	.	.
4BBB	4re	4ree	6D G# B	.	6e	E 7
.	.	.	.	.	.	.
.	.	.	.	.	.	.
.	.	.	.	.	.	.
.	.	.	12r	.	12r	.
.	.	.	.	.	.	.
4EEE	4re	16Ree/	4r	.	4r	.
.	.	16ree	.	.	.	.
.	.	.	.	.	.	.
.	.	8ree	.	.	.	.
.	.	.	.	.	.	.
.	.	.	.	.	.	.
=22	=22	=22	=22	=22	=22	=22
*	*head:regular	*head:x	*	*	*	*
4CC	4re	4ree	4r	1ryy	4r	A i
.	.	.	.	.	.	.
.	.	.	.	.	.	.
.	.	.	.	.	.	.
.	.	.	.	.	.	.
.	.	.	.	.	.	.
4AAA	4re	16Ree/	4C G B	.	4d a dd	.
.	.	16ree	.	.	.	.
.	.	.	.	.	.	.
.	.	8ree	.	.	.	.
.	.	.	.	.	.	.
.	.	.	.	.	.	.
4GGG#	4re	4ree	4r	.	4r	G+ U
.	.	.	.	.	.	.
.	.	.	.	.	.	.
.	.	.	.	.	.	.
.	.	.	.	.	.	.
.	.	.	.	.	.	.
4CC#	4re	16Ree/	4r	.	4r	.
.	.	16ree	.	.	.	.
.	.	.	.	.	.	.
.	.	8ree	.	.	.	.
.	.	.	.	.	.	.
.	.	.	.	.	.	.
=23	=23	=23	=23	=23	=23	=23
*	*head:regular	*head:x	*	*	*	*
4DD	4re	4ree	4F A B	1ryy	4e g dd gg	G U
.	.	.	.	.	.	.
.	.	.	.	.	.	.
.	.	.	.	.	.	.
.	.	.	.	.	.	.
.	.	.	.	.	.	.
4GG	4re	16Ree/	4r	.	4r	.
.	.	16ree	.	.	.	.
.	.	.	.	.	.	.
.	.	8ree	.	.	.	.
.	.	.	.	.	.	.
.	.	.	.	.	.	.
4EE	4re	4ree	4r	.	4r	A 9
.	.	.	.	.	.	.
.	.	.	.	.	.	.
.	.	.	.	.	.	.
.	.	.	.	.	.	.
.	.	.	.	.	.	.
4GG	4re	16Ree/	4r	.	4r	.
.	.	16ree	.	.	.	.
.	.	.	.	.	.	.
.	.	8ree	.	.	.	.
.	.	.	.	.	.	.
.	.	.	.	.	.	.
=24	=24	=24	=24	=24	=24	=24
*	*head:regular	*head:x	*	*	*	*
4D	4re	4ree	4r	1ryy	4r	D h
.	.	.	.	.	.	.
.	.	.	.	.	.	.
.	.	.	.	.	.	.
.	.	.	.	.	.	.
.	.	.	.	.	.	.
4C	12Rf\	16Ree/	4r	.	4r	.
.	.	16ree	.	.	.	.
.	12re	.	.	.	.	.
.	.	8ree	.	.	.	.
.	12re	.	.	.	.	.
.	.	.	.	.	.	.
8AA	4re	4ree	4E A	.	4c# g#	F+ h
.	.	.	.	.	.	.
.	.	.	.	.	.	.
8r	.	.	.	.	.	.
.	.	.	.	.	.	.
.	.	.	.	.	.	.
8CC	4re	16Ree/	4r	.	4r	B 7
.	.	16ree	.	.	.	.
.	.	.	.	.	.	.
8r	.	8ree	.	.	.	.
.	.	.	.	.	.	.
.	.	.	.	.	.	.
=25	=25	=25	=25	=25	=25	=25
*	*head:regular	*head:x	*	*	*	*
4r	4re	4ree	4r	1ryy	4r	C 6
.	.	.	.	.	.	.
.	.	.	.	.	.	.
.	.	.	.	.	.	.
.	.	.	.	.	.	.
.	.	.	.	.	.	.
4AAA	4re	12Ree/	4r	.	4r	.
.	.	.	.	.	.	.
.	.	12ree	.	.	.	.
.	.	.	.	.	.	.
.	.	12ree	.	.	.	.
.	.	.	.	.	.	.
6EEE	4re	12Ree/	4G B	.	4c# f# a ee aa	A U
.	.	.	.	.	.	.
.	.	12ree	.	.	.	.
.	.	.	.	.	.	.
12r	.	12ree	.	.	.	.
.	.	.	.	.	.	.
4AAA	4re	12Ree/	4r	.	4r	.
.	.	.	.	.	.	.
.	.	12ree	.	.	.	.
.	.	.	.	.	.	.
.	.	12ree	.	.	.	.
.	.	.	.	.	.	.
=26	=26	=26	=26	=26	=26	=26
*	*head:regular	*head:x	*	*	*	*
4DD	4re	12Ree/	4r	1ryy	4r	D h
.	.	.	.	.	.	.
.	.	12ree	.	.	.	.
.	.	.	.	.	.	.
.	.	12ree	.	.	.	.
.	.	.	.	.	.	.
4FF	4re	16Ree/	4r	.	4r	.
.	.	16ree	.	.	.	.
.	.	.	.	.	.	.
.	.	8ree	.	.	.	.
.	.	.	.	.	.	.
.	.	.	.	.	.	.
4AAA	4re	12Ree/	6A	.	6e f# cc#	F+ b
.	.	.	.	.	.	.
.	.	12ree	.	.	.	.
.	.	.	.	.	.	.
.	.	12ree	12r	.	12r	.
.	.	.	.	.	.	.
8.DD#	4re	12Ree/	4r	.	4r	B 9
.	.	.	.	.	.	.
.	.	12ree	.	.	.	.
.	.	.	.	.	.	.
.	.	12ree	.	.	.	.
16r	.	.	.	.	.	.
=27	=27	=27	=27	=27	=27	=27
*	*head:regular	*head:x	*	*	*	*
8CC	4re	12Ree/	4r	1ryy	4r	C 6
.	.	.	.	.	.	.
.	.	12ree	.	.	.	.
8r	.	.	.	.	.	.
.	.	12ree	.	.	.	.
.	.	.	.	.	.	.
8.EE	4re	12Ree/	4r	.	4r	.
.	.	.	.	.	.	.
.	.	12ree	.	.	.	.
.	.	.	.	.	.	.
.	.	12ree	.	.	.	.
16r	.	.	.	.	.	.
4GG#	4re	12Ree/	4D G#	.	4c e	E q
.	.	.	.	.	.	.
.	.	12ree	.	.	.	.
.	.	.	.	.	.	.
.	.	12ree	.	.	.	.
.	.	.	.	.	.	.
4C	4re	16Ree/	4r	.	4r	.
.	.	16ree	.	.	.	.
.	.	.	.	.	.	.
.	.	8ree	.	.	.	.
.	.	.	.	.	.	.
.	.	.	.	.	.	.
=28	=28	=28	=28	=28	=28	=28
*	*head:regular	*head:x	*	*	*	*
4FFF	4re	12Ree/	4A	1ryy	4d g cc	F k
.	.	.	.	.	.	.
.	.	12ree	.	.	.	.
.	.	.	.	.	.	.
.	.	12ree	.	.	.	.
.	.	.	.	.	.	.
4CC	4re	12Ree/	4r	.	4r	.
.	.	.	.	.	.	.
.	.	12ree	.	.	.	.
.	.	.	.	.	.	.
.	.	12ree	.	.	.	.
.	.	.	.	.	.	.
4CC	4re	12Ree/	4D G#	.	4c g	F Z
.	.	.	.	.	.	.
.	.	12ree	.	.	.	.
.	.	.	.	.	.	.
.	.	12ree	.	.	.	.
.	.	.	.	.	.	.
4GGG	4re	12Ree/	4r	.	4r	.
.	.	.	.	.	.	.
.	.	12ree	.	.	.	.
.	.	.	.	.	.	.
.	.	12ree	.	.	.	.
.	.	.	.	.	.	.
=29	=29	=29	=29	=29	=29	=29
*	*head:regular	*head:x	*	*	*	*
4EEE	4re	12Ree/	4r	1ryy	4r	C k
.	.	.	.	.	.	.
.	.	12ree	.	.	.	.
.	.	.	.	.	.	.
.	.	12ree	.	.	.	.
.	.	.	.	.	.	.
4CC	4re	12Ree/	4r	.	4r	.
.	.	.	.	.	.	.
.	.	12ree	.	.	.	.
.	.	.	.	.	.	.
.	.	12ree	.	.	.	.
.	.	.	.	.	.	.
4CC#	4re	12Ree/	4C# G B	.	4f#	A U
.	.	.	.	.	.	.
.	.	12ree	.	.	.	.
.	.	.	.	.	.	.
.	.	12ree	.	.	.	.
.	.	.	.	.	.	.
4EE	4re	12Ree/	4r	.	4r	.
.	.	.	.	.	.	.
.	.	12ree	.	.	.	.
.	.	.	.	.	.	.
.	.	12ree	.	.	.	.
.	.	.	.	.	.	.
=30	=30	=30	=30	=30	=30	=30
*	*head:regular	*head:x	*	*	*	*
4FF	4re	12Ree/	4r	1ryy	4r	D a
.	.	.	.	.	.	.
.	.	12ree	.	.	.	.
.	.	.	.	.	.	.
.	.	12ree	.	.	.	.
.	.	.	.	.	.	.
4AA	4re	12Ree/	4r	.	4r	.
.	.	.	.	.	.	.
.	.	12ree	.	.	.	.
.	.	.	.	.	.	.
.	.	12ree	.	.	.	.
.	.	.	.	.	.	.
4CC#	4re	12Ree/	6E A	.	6c# f#	F+ b
.	.	.	.	.	.	.
.	.	12ree	.	.	.	.
.	.	.	.	.	.	.
.	.	12ree	12r	.	12r	.
.	.	.	.	.	.	.
4CC#	4re	12Ree/	4r	.	4r	B p
.	.	.	.	.	.	.
.	.	12ree	.	.	.	.
.	.	.	.	.	.	.
.	.	12ree	.	.	.	.
.	.	.	.	.	.	.
=31	=31	=31	=31	=31	=31	=31
*	*head:regular	*head:x	*	*	*	*
4CC	4re	12Ree/	4r	1ryy	4r	C k
.	.	.	.	.	.	.
.	.	12ree	.	.	.	.
.	.	.	.	.	.	.
.	.	12ree	.	.	.	.
.	.	.	.	.	.	.
4GG	4re	12Ree/	4r	.	4r	.
.	.	.	.	.	.	.
.	.	12ree	.	.	.	.
.	.	.	.	.	.	.
.	.	12ree	.	.	.	.
.	.	.	.	.	.	.
4AAA	4re	12Ree/	4r	.	4c g b dd	A i
.	.	.	.	.	.	.
.	.	12ree	.	.	.	.
.	.	.	.	.	.	.
.	.	12ree	.	.	.	.
.	.	.	.	.	.	.
4CC#	4re	12Ree/	4r	.	4r	.
.	.	.	.	.	.	.
.	.	12ree	.	.	.	.
.	.	.	.	.	.	.
.	.	12ree	.	.	.	.
.	.	.	.	.	.	.
=32	=32	=32	=32	=32	=32	=32
*	*head:regular	*head:x	*	*	*	*
4DD	4re	12Ree/	4r	1ryy	4r	D b
.	.	.	.	.	.	.
.	.	12ree	.	.	.	.
.	.	.	.	.	.	.
.	.	12ree	.	.	.	.
.	.	.	.	.	.	.
4FF#	4re	12Ree/	4r	.	4r	.
.	.	.	.	.	.	.
.	.	12ree	.	.	.	.
.	.	.	.	.	.	.
.	.	12ree	.	.	.	.
.	.	.	.	.	.	.
8FF#	4re	4ree	4A	.	4e g# cc#	F+ h
.	.	.	.	.	.	.
.	.	.	.	.	.	.
8r	.	.	.	.	.	.
.	.	.	.	.	.	.
.	.	.	.	.	.	.
8AA	4re	16Ree/	4r	.	4r	B 7
.	.	16ree	.	.	.	.
.	.	.	.	.	.	.
8r	.	8ree	.	.	.	.
.	.	.	.	.	.	.
.	.	.	.	.	.	.
=33	=33	=33	=33	=33	=33	=33
*	*head:regular	*head:x	*	*	*	*
4C	4re	4ree	4r	1ryy	4r	C k
.	.	.	.	.	.	.
.	.	.	.	.	.	.
.	.	.	.	.	.	.
.	.	.	.	.	.	.
.	.	.	.	.	.	.
4E	4re	16Ree/	4r	.	4r	.
.	.	16ree	.	.	.	.
.	.	.	.	.	.	.
.	.	8ree	.	.	.	.
.	.	.	.	.	.	.
.	.	.	.	.	.	.
4EE	4re	16Ree/	6G	.	6c# e b ee bb	A 9
.	.	16ree	.	.	.	.
.	.	.	.	.	.	.
.	.	8ree	.	.	.	.
.	.	.	12r	.	12r	.
.	.	.	.	.	.	.
6AA	4re	16Ree/	4r	.	4r	.
.	.	16ree	.	.	.	.
.	.	.	.	.	.	.
.	.	8ree	.	.	.	.
12r	.	.	.	.	.	.
.	.	.	.	.	.	.
=34	=34	=34	=34	=34	=34	=34
*	*head:regular	*head:x	*	*	*	*
4DD	4re	16Ree/	4r	1ryy	4r	D a
.	.	16ree	.	.	.	.
.	.	.	.	.	.	.
.	.	8ree	.	.	.	.
.	.	.	.	.	.	.
.	.	.	.	.	.	.
4AAA#	4re	16Ree/	4F A	.	4d a dd aa	.
.	.	16ree	.	.	.	.
.	.	.	.	.	.	.
.	.	8ree	.	.	.	.
.	.	.	.	.	.	.
.	.	.	.	.	.	.
4AAA	4re	16Ree/	4r	.	4r	F+ b
.	.	16ree	.	.	.	.
.	.	.	.	.	.	.
.	.	8ree	.	.	.	.
.	.	.	.	.	.	.
.	.	.	.	.	.	.
8CC#	4re	16Ree/	4r	.	4r	B 9
.	.	16ree	.	.	.	.
.	.	.	.	.	.	.
8r	.	8ree	.	.	.	.
.	.	.	.	.	.	.
.	.	.	.	.	.	.
=35	=35	=35	=35	=35	=35	=35
*	*head:regular	*head:x	*	*	*	*
8.DD	4re	16Ree/	4C F A	1ryy	4e	D h
.	.	16ree	.	.	.	.
.	.	.	.	.	.	.
.	.	8ree	.	.	.	.
.	.	.	.	.	.	.
16r	.	.	.	.	.	.
4AAA	4re	16Ree/	4r	.	4r	.
.	.	16ree	.	.	.	.
.	.	.	.	.	.	.
.	.	8ree	.	.	.	.
.	.	.	.	.	.	.
.	.	.	.	.	.	.
4GGG#	4re	16Ree/	4r	.	4r	C+ U
.	.	16ree	.	.	.	.
.	.	.	.	.	.	.
.	.	8ree	.	.	.	.
.	.	.	.	.	.	.
.	.	.	.	.	.	.
4BBB	4re	16Ree/	4r	.	4r	.
.	.	16ree	.	.	.	.
.	.	.	.	.	.	.
.	.	8ree	.	.	.	.
.	.	.	.	.	.	.
.	.	.	.	.	.	.
=36	=36	=36	=36	=36	=36	=36
*	*head:regular	*head:x	*	*	*	*
4CC	4re	16Ree/	4r	1ryy	4r	C 6
.	.	16ree	.	.	.	.
.	.	.	.	.	.	.
.	.	8ree	.	.	.	.
.	.	.	.	.	.	.
.	.	.	.	.	.	.
4GGG	4re	16Ree/	4r	.	4r	.
.	.	16ree	.	.	.	.
.	.	.	.	.	.	.
.	.	8ree	.	.	.	.
.	.	.	.	.	.	.
.	.	.	.	.	.	.
4FF	4re	16Ree/	4r	.	4r	F Z
.	.	16ree	.	.	.	.
.	.	.	.	.	.	.
.	.	8ree	.	.	.	.
.	.	.	.	.	.	.
.	.	.	.	.	.	.
6GGG	4re	16Ree/	12G#	.	12d g cc	.
.	.	16ree	.	.	.	.
.	.	.	12r	.	12r	.
.	.	8ree	.	.	.	.
12r	.	.	12r	.	12r	.
.	.	.	.	.	.	.
=37	=37	=37	=37	=37	=37	=37
*	*head:regular	*head:x	*	*	*	*
4EEE	12Rf\	12Ree/	4r	1ryy	4r	C k
.	.	.	.	.	.	.
.	12re	12ree	.	.	.	.
.	.	.	.	.	.	.
.	12re	12ree	.	.	.	.
.	.	.	.	.	.	.
4CC	4re	12Ree/	4r	.	4r	.
.	.	.	.	.	.	.
.	.	12ree	.	.	.	.
.	.	.	.	.	.	.
.	.	12ree	.	.	.	.
.	.	.	.	.	.	.
4CC#	12Rf\	12Ree/	4C# G B	.	4e	A 9
.	.	.	.	.	.	.
.	12re	12ree	.	.	.	.
.	.	.	.	.	.	.
.	12re	12ree	.	.	.	.
.	.	.	.	.	.	.
6EE	4re	12Ree/	4r	.	4r	.
.	.	.	.	.	.	.
.	.	12ree	.	.	.	.
.	.	.	.	.	.	.
12r	.	12ree	.	.	.	.
.	.	.	.	.	.	.
=38	=38	=38	=38	=38	=38	=38
*	*head:regular	*head:x	*	*	*	*
4FFF	4re	12Ree/	4r	1ryy	4r	D h
.	.	.	.	.	.	.
.	.	12ree	.	.	.	.
.	.	.	.	.	.	.
.	.	12ree	.	.	.	.
.	.	.	.	.	.	.
4BBB	4re	12Ree/	4r	.	4r	.
.	.	.	.	.	.	.
.	.	12ree	.	.	.	.
.	.	.	.	.	.	.
.	.	12ree	.	.	.	.
.	.	.	.	.	.	.
4BBB	4re	12Ree/	6F B	.	6e a	G U
.	.	.	.	.	.	.
.	.	12ree	.	.	.	.
.	.	.	.	.	.	.
.	.	12ree	12r	.	12r	.
.	.	.	.	.	.	.
8EE	4re	12Ree/	4r	.	4r	.
.	.	.	.	.	.	.
.	.	12ree	.	.	.	.
8r	.	.	.	.	.	.
.	.	12ree	.	.	.	.
.	.	.	.	.	.	.
=39	=39	=39	=39	=39	=39	=39
*	*head:regular	*head:x	*	*	*	*
8.AA	4re	12Ree/	4r	1ryy	4r	D i
.	.	.	.	.	.	.
.	.	12ree	.	.	.	.
.	.	.	.	.	.	.
.	.	12ree	.	.	.	.
16r	.	.	.	.	.	.
4GG	12Rf\	16Ree/	4r	.	4r	.
.	.	16ree	.	.	.	.
.	12re	.	.	.	.	.
.	.	8ree	.	.	.	.
.	12re	.	.	.	.	.
.	.	.	.	.	.	.
4CC#	4re	12Ree/	4F B	.	4c# g	C+ t
.	.	.	.	.	.	.
.	.	12ree	.	.	.	.
.	.	.	.	.	.	.
.	.	12ree	.	.	.	.
.	.	.	.	.	.	.
4CC#	4re	12Ree/	4r	.	4r	.
.	.	.	.	.	.	.
.	.	12ree	.	.	.	.
.	.	.	.	.	.	.
.	.	12ree	.	.	.	.
.	.	.	.	.	.	.
=40	=40	=40	=40	=40	=40	=40
*	*head:regular	*head:x	*	*	*	*
4CC	4re	12Ree/	4r	1ryy	4r	C 6
.	.	.	.	.	.	.
.	.	12ree	.	.	.	.
.	.	.	.	.	.	.
.	.	12ree	.	.	.	.
.	.	.	.	.	.	.
4GGG#	12Rf\	16Ree/	4r	.	4r	.
.	.	16ree	.	.	.	.
.	12re	.	.	.	.	.
.	.	8ree	.	.	.	.
.	12re	.	.	.	.	.
.	.	.	.	.	.	.
8GGG	4re	16Ree/	4BB F A	.	4e	G U
.	.	16ree	.	.	.	.
.	.	.	.	.	.	.
8r	.	8ree	.	.	.	.
.	.	.	.	.	.	.
.	.	.	.	.	.	.
8DD	4re	16Ree/	4r	.	4r	.
.	.	16ree	.	.	.	.
.	.	.	.	.	.	.
8r	.	8ree	.	.	.	.
.	.	.	.	.	.	.
.	.	.	.	.	.	.
=41	=41	=41	=41	=41	=41	=41
*	*head:regular	*head:x	*	*	*	*
4CC	4re	4ree	4r	1ryy	4r	C k
.	.	.	.	.	.	.
.	.	.	.	.	.	.
.	.	.	.	.	.	.
.	.	.	.	.	.	.
.	.	.	.	.	.	.
4DD	4re	12Ree/	4r	.	4r	.
.	.	.	.	.	.	.
.	.	12ree	.	.	.	.
.	.	.	.	.	.	.
.	.	12ree	.	.	.	.
.	.	.	.	.	.	.
4AA	4re	12Ree/	4r	.	4r	A U
.	.	.	.	.	.	.
.	.	12ree	.	.	.	.
.	.	.	.	.	.	.
.	.	12ree	.	.	.	.
.	.	.	.	.	.	.
4C#	4re	16Ree/	4r	.	4r	.
.	.	16ree	.	.	.	.
.	.	.	.	.	.	.
.	.	8ree	.	.	.	.
.	.	.	.	.	.	.
.	.	.	.	.	.	.
=42	=42	=42	=42	=42	=42	=42
*	*head:regular	*head:x	*	*	*	*
4D	4re	12Ree/	4r	1ryy	4r	D b
.	.	.	.	.	.	.
.	.	12ree	.	.	.	.
.	.	.	.	.	.	.
.	.	12ree	.	.	.	.
.	.	.	.	.	.	.
4C	4re	12Ree/	12C F A	.	12d	.
.	.	.	.	.	.	.
.	.	12ree	12r	.	12r	.
.	.	.	.	.	.	.
.	.	12ree	12r	.	12r	.
.	.	.	.	.	.	.
4AA	4re	12Ree/	4E A	.	4c# f#	F+ b
.	.	.	.	.	.	.
.	.	12ree	.	.	.	.
.	.	.	.	.	.	.
.	.	12ree	.	.	.	.
.	.	.	.	.	.	.
4D#	4re	16Ree/	4r	.	4r	B 7
.	.	16ree	.	.	.	.
.	.	.	.	.	.	.
.	.	8ree	.	.	.	.
.	.	.	.	.	.	.
.	.	.	.	.	.	.
=43	=43	=43	=43	=43	=43	=43
*	*head:regular	*head:x	*	*	*	*
4CC	4re	12Ree/	4r	1ryy	4r	C k
.	.	.	.	.	.	.
.	.	12ree	.	.	.	.
.	.	.	.	.	.	.
.	.	12ree	.	.	.	.
.	.	.	.	.	.	.
4FFF	4re	12Ree/	4r	.	4r	.
.	.	.	.	.	.	.
.	.	12ree	.	.	.	.
.	.	.	.	.	.	.
.	.	12ree	.	.	.	.
.	.	.	.	.	.	.
4EEE	4re	12Ree/	4r	.	4r	E q
.	.	.	.	.	.	.
.	.	12ree	.	.	.	.
.	.	.	.	.	.	.
.	.	12ree	.	.	.	.
.	.	.	.	.	.	.
4BBB	4re	16Ree/	4r	.	4r	.
.	.	16ree	.	.	.	.
.	.	.	.	.	.	.
.	.	8ree	.	.	.	.
.	.	.	.	.	.	.
.	.	.	.	.	.	.
=44	=44	=44	=44	=44	=44	=44
*	*head:regular	*head:x	*	*	*	*
4CC	4re	16Ree/	4r	1ryy	4r	F k
.	.	16ree	.	.	.	.
.	.	.	.	.	.	.
.	.	8ree	.	.	.	.
.	.	.	.	.	.	.
.	.	.	.	.	.	.
4AAA	12Rf\	16Ree/	12F A	.	12d g	.
.	.	16ree	.	.	.	.
.	12re	.	12r	.	12r	.
.	.	8ree	.	.	.	.
.	12re	.	12r	.	12r	.
.	.	.	.	.	.	.
4GGG#	4re	4ree	4r	.	4r	F Z
.	.	.	.	.	.	.
.	.	.	.	.	.	.
.	.	.	.	.	.	.
.	.	.	.	.	.	.
.	.	.	.	.	.	.
4CC	4re	16Ree/	4r	.	4r	.
.	.	16ree	.	.	.	.
.	.	.	.	.	.	.
.	.	8ree	.	.	.	.
.	.	.	.	.	.	.
.	.	.	.	.	.	.
=45	=45	=45	=45	=45	=45	=45
*	*head:regular	*head:x	*	*	*	*
4EEE	16Rf\	16Ree/	4r	1ryy	4r	C k
.	16re	16ree	.	.	.	.
.	.	.	.	.	.	.
.	8re	8ree	.	.	.	.
.	.	.	.	.	.	.
.	.	.	.	.	.	.
4GGG	4re	16Ree/	4r	.	4r	.
.	.	16ree	.	.	.	.
.	.	.	.	.	.	.
.	.	8ree	.	.	.	.
.	.	.	.	.	.	.
.	.	.	.	.	.	.
6AA	4re	16Ree/	4C# G B	.	4e	A 9
.	.	16ree	.	.	.	.
.	.	.	.	.	.	.
.	.	8ree	.	.	.	.
12r	.	.	.	.	.	.
.	.	.	.	.	.	.
4E	4re	16Ree/	4r	.	4r	.
.	.	16ree	.	.	.	.
.	.	.	.	.	.	.
.	.	8ree	.	.	.	.
.	.	.	.	.	.	.
.	.	.	.	.	.	.
=46	=46	=46	=46	=46	=46	=46
*	*head:regular	*head:x	*	*	*	*
4AAA	4re	16Ree/	4r	1ryy	4r	D a
.	.	16ree	.	.	.	.
.	.	.	.	.	.	.
.	.	8ree	.	.	.	.
.	.	.	.	.	.	.
.	.	.	.	.	.	.
4FFF	4re	16Ree/	4r	.	4r	.
.	.	16ree	.	.	.	.
.	.	.	.	.	.	.
.	.	8ree	.	.	.	.
.	.	.	.	.	.	.
.	.	.	.	.	.	.
4CC#	4re	16Ree/	4E A B	.	4g#	F+ i
.	.	16ree	.	.	.	.
.	.	.	.	.	.	.
.	.	8ree	.	.	.	.
.	.	.	.	.	.	.
.	.	.	.	.	.	.
8.GGG#	4re	16Ree/	4r	.	4r	B 9
.	.	16ree	.	.	.	.
.	.	.	.	.	.	.
.	.	8ree	.	.	.	.
.	.	.	.	.	.	.
16r	.	.	.	.	.	.
=47	=47	=47	=47	=47	=47	=47
*	*head:regular	*head:x	*	*	*	*
8GGG	4re	16Ree/	4r	1ryy	4r	C k
.	.	16ree	.	.	.	.
.	.	.	.	.	.	.
8r	.	8ree	.	.	.	.
.	.	.	.	.	.	.
.	.	.	.	.	.	.
8.BBB	4re	16Ree/	4r	.	4r	.
.	.	16ree	.	.	.	.
.	.	.	.	.	.	.
.	.	8ree	.	.	.	.
.	.	.	.	.	.	.
16r	.	.	.	.	.	.
4CC	4re	4ree	4A	.	4f cc dd ff	F 6
.	.	.	.	.	.	.
.	.	.	.	.	.	.
.	.	.	.	.	.	.
.	.	.	.	.	.	.
.	.	.	.	.	.	.
4DD	4re	16Ree/	4r	.	4r	F j
.	.	16ree	.	.	.	.
.	.	.	.	.	.	.
.	.	8ree	.	.	.	.
.	.	.	.	.	.	.
.	.	.	.	.	.	.
=48	=48	=48	=48	=48	=48	=48
*	*head:regular	*head:x	*	*	*	*
4EE	4re	16Ree/	4E	1ryy	4c a cc aa	C 6
.	.	16ree	.	.	.	.
.	.	.	.	.	.	.
.	.	8ree	.	.	.	.
.	.	.	.	.	.	.
.	.	.	.	.	.	.
4BBB	4re	16Ree/	4r	.	4r	.
.	.	16ree	.	.	.	.
.	.	.	.	.	.	.
.	.	8ree	.	.	.	.
.	.	.	.	.	.	.
.	.	.	.	.	.	.
8BBB	4re	16Ree/	4D F# G#	.	4c# e b ee	E U
.	.	16ree	.	.	.	.
.	.	.	.	.	.	.
8r	.	8ree	.	.	.	.
.	.	.	.	.	.	.
.	.	.	.	.	.	.
4r	4re	16Ree/	4r	.	4r	.
.	.	16ree	.	.	.	.
.	.	.	.	.	.	.
.	.	8ree	.	.	.	.
.	.	.	.	.	.	.
.	.	.	.	.	.	.
=49	=49	=49	=49	=49	=49	=49
*	*head:regular	*head:x	*	*	*	*
4AAA	4re	4ree	4r	1ryy	4r	A j
.	.	.	.	.	.	.
.	.	.	.	.	.	.
.	.	.	.	.	.	.
.	.	.	.	.	.	.
.	.	.	.	.	.	.
4FFF#	4re	16Ree/	4r	.	4r	.
.	.	16ree	.	.	.	.
.	.	.	.	.	.	.
.	.	8ree	.	.	.	.
.	.	.	.	.	.	.
.	.	.	.	.	.	.
4EEE	4re	4ree	4r	.	4r	.
.	.	.	.	.	.	.
.	.	.	.	.	.	.
.	.	.	.	.	.	.
.	.	.	.	.	.	.
.	.	.	.	.	.	.
6CC	4re	16Ree/	4r	.	4r	.
.	.	16ree	.	.	.	.
.	.	.	.	.	.	.
.	.	8ree	.	.	.	.
12r	.	.	.	.	.	.
.	.	.	.	.	.	.
=50	=50	=50	=50	=50	=50	=50
*	*head:regular	*head:x	*	*	*	*
4DD	4re	4ree	6F	1ryy	6c e a	D h
.	.	.	.	.	.	.
.	.	.	.	.	.	.
.	.	.	.	.	.	.
.	.	.	12r	.	12r	.
.	.	.	.	.	.	.
4AAA	16Rf\	16Ree/	4r	.	4r	.
.	16re	16ree	.	.	.	.
.	.	.	.	.	.	.
.	8re	8ree	.	.	.	.
.	.	.	.	.	.	.
.	.	.	.	.	.	.
4AA	4re	4ree	6F	.	6c e a	.
.	.	.	.	.	.	.
.	.	.	.	.	.	.
.	.	.	.	.	.	.
.	.	.	12r	.	12r	.
.	.	.	.	.	.	.
8.DD	4re	16Ree/	4r	.	4r	.
.	.	16ree	.	.	.	.
.	.	.	.	.	.	.
.	.	8ree	.	.	.	.
.	.	.	.	.	.	.
16r	.	.	.	.	.	.
=51	=51	=51	=51	=51	=51	=51
*	*head:regular	*head:x	*	*	*	*
8.C#	4re	4ree	4r	1ryy	4r	C+ U
.	.	.	.	.	.	.
.	.	.	.	.	.	.
.	.	.	.	.	.	.
.	.	.	.	.	.	.
16r	.	.	.	.	.	.
4GG#	4re	16Ree/	4r	.	4r	.
.	.	16ree	.	.	.	.
.	.	.	.	.	.	.
.	.	8ree	.	.	.	.
.	.	.	.	.	.	.
.	.	.	.	.	.	.
8GG#	4re	4ree	4F B	.	4d# a#	.
.	.	.	.	.	.	.
.	.	.	.	.	.	.
8r	.	.	.	.	.	.
.	.	.	.	.	.	.
.	.	.	.	.	.	.
4CC#	4re	16Ree/	4r	.	4r	.
.	.	16ree	.	.	.	.
.	.	.	.	.	.	.
.	.	8ree	.	.	.	.
.	.	.	.	.	.	.
.	.	.	.	.	.	.
=52	=52	=52	=52	=52	=52	=52
*	*head:regular	*head:x	*	*	*	*
4CC	16Rf\	4ree	4E A	1ryy	4d g	C k
.	16re	.	.	.	.	.
.	.	.	.	.	.	.
.	8re	.	.	.	.	.
.	.	.	.	.	.	.
.	.	.	.	.	.	.
4AAA	16Rf\	16Ree/	4r	.	4r	.
.	16re	16ree	.	.	.	.
.	.	.	.	.	.	.
.	8re	8ree	.	.	.	.
.	.	.	.	.	.	.
.	.	.	.	.	.	.
4EEE	4re	4ree	4r	.	4r	.
.	.	.	.	.	.	.
.	.	.	.	.	.	.
.	.	.	.	.	.	.
.	.	.	.	.	.	.
.	.	.	.	.	.	.
4GGG	4re	16Ree/	4r	.	4r	.
.	.	16ree	.	.	.	.
.	.	.	.	.	.	.
.	.	8ree	.	.	.	.
.	.	.	.	.	.	.
.	.	.	.	.	.	.
=53	=53	=53	=53	=53	=53	=53
*	*head:regular	*head:x	*	*	*	*
6BBB	12Rf\	4ree	4r	1ryy	4r	G k
.	.	.	.	.	.	.
.	12re	.	.	.	.	.
.	.	.	.	.	.	.
12r	12re	.	.	.	.	.
.	.	.	.	.	.	.
4DD	4re	16Ree/	4B	.	4e a dd	.
.	.	16ree	.	.	.	.
.	.	.	.	.	.	.
.	.	8ree	.	.	.	.
.	.	.	.	.	.	.
.	.	.	.	.	.	.
4GGG#	4re	4ree	4r	.	4r	E U
.	.	.	.	.	.	.
.	.	.	.	.	.	.
.	.	.	.	.	.	.
.	.	.	.	.	.	.
.	.	.	.	.	.	.
4BBB	4re	16Ree/	4r	.	4r	.
.	.	16ree	.	.	.	.
.	.	.	.	.	.	.
.	.	8ree	.	.	.	.
.	.	.	.	.	.	.
.	.	.	.	.	.	.
=54	=54	=54	=54	=54	=54	=54
*	*head:regular	*head:x	*	*	*	*
4CC	4re	4ree	4r	1ryy	4r	A i
.	.	.	.	.	.	.
.	.	.	.	.	.	.
.	.	.	.	.	.	.
.	.	.	.	.	.	.
.	.	.	.	.	.	.
4GG	4re	16Ree/	4r	.	4r	.
.	.	16ree	.	.	.	.
.	.	.	.	.	.	.
.	.	8ree	.	.	.	.
.	.	.	.	.	.	.
.	.	.	.	.	.	.
4GG#	4re	4ree	6F#	.	6c f a#	G+ U
.	.	.	.	.	.	.
.	.	.	.	.	.	.
.	.	.	.	.	.	.
.	.	.	12r	.	12r	.
.	.	.	.	.	.	.
4FF#	4re	16Ree/	4r	.	4r	.
.	.	16ree	.	.	.	.
.	.	.	.	.	.	.
.	.	8ree	.	.	.	.
.	.	.	.	.	.	.
.	.	.	.	.	.	.
=55	=55	=55	=55	=55	=55	=55
*	*head:regular	*head:x	*	*	*	*
4GGG	4re	4ree	4F B	1ryy	4e a	G U
.	.	.	.	.	.	.
.	.	.	.	.	.	.
.	.	.	.	.	.	.
.	.	.	.	.	.	.
.	.	.	.	.	.	.
6DD	4re	16Ree/	4r	.	4r	.
.	.	16ree	.	.	.	.
.	.	.	.	.	.	.
.	.	8ree	.	.	.	.
12r	.	.	.	.	.	.
.	.	.	.	.	.	.
4CC#	4re	4ree	4r	.	4r	A 9
.	.	.	.	.	.	.
.	.	.	.	.	.	.
.	.	.	.	.	.	.
.	.	.	.	.	.	.
.	.	.	.	.	.	.
4AAA	4re	16Ree/	4r	.	4r	.
.	.	16ree	.	.	.	.
.	.	.	.	.	.	.
.	.	8ree	.	.	.	.
.	.	.	.	.	.	.
.	.	.	.	.	.	.
=56	=56	=56	=56	=56	=56	=56
*	*head:regular	*head:x	*	*	*	*
4FFF	4re	4ree	4r	1ryy	4r	D a
.	.	.	.	.	.	.
.	.	.	.	.	.	.
.	.	.	.	.	.	.
.	.	.	.	.	.	.
.	.	.	.	.	.	.
4DD	4re	16Ree/	6F A	.	6d a dd aa	.
.	.	16ree	.	.	.	.
.	.	.	.	.	.	.
.	.	8ree	.	.	.	.
.	.	.	12r	.	12r	.
.	.	.	.	.	.	.
8CC#	4re	4ree	4A	.	4e g# b	F+ i
.	.	.	.	.	.	.
.	.	.	.	.	.	.
8r	.	.	.	.	.	.
.	.	.	.	.	.	.
.	.	.	.	.	.	.
8FF#	16Rf\	16Ree/	4r	.	4r	B 9
.	16re	16ree	.	.	.	.
.	.	.	.	.	.	.
8r	8re	8ree	.	.	.	.
.	.	.	.	.	.	.
.	.	.	.	.	.	.
=57	=57	=57	=57	=57	=57	=57
*	*head:regular	*head:x	*	*	*	*
6CC	4re	4ree	4r	1ryy	4r	C k
.	.	.	.	.	.	.
.	.	.	.	.	.	.
.	.	.	.	.	.	.
12r	.	.	.	.	.	.
.	.	.	.	.	.	.
4GGG	4re	16Ree/	4r	.	4r	.
.	.	16ree	.	.	.	.
.	.	.	.	.	.	.
.	.	8ree	.	.	.	.
.	.	.	.	.	.	.
.	.	.	.	.	.	.
4CC#	4re	16Ree/	4G	.	4c# e b	A 9
.	.	16ree	.	.	.	.
.	.	.	.	.	.	.
.	.	8ree	.	.	.	.
.	.	.	.	.	.	.
.	.	.	.	.	.	.
4CC#	4re	16Ree/	4r	.	4r	.
.	.	16ree	.	.	.	.
.	.	.	.	.	.	.
.	.	8ree	.	.	.	.
.	.	.	.	.	.	.
.	.	.	.	.	.	.
=58	=58	=58	=58	=58	=58	=58
*	*head:regular	*head:x	*	*	*	*
4DD	4re	16Ree/	4F	1ryy	4c e a dd aa	D h
.	.	16ree	.	.	.	.
.	.	.	.	.	.	.
.	.	8ree	.	.	.	.
.	.	.	.	.	.	.
.	.	.	.	.	.	.
4AAA	16Rf\	16Ree/	4r	.	4r	.
.	16re	16ree	.	.	.	.
.	.	.	.	.	.	.
.	8re	8ree	.	.	.	.
.	.	.	.	.	.	.
.	.	.	.	.	.	.
4FFF#	4re	16Ree/	4E A B	.	4g#	F+ i
.	.	16ree	.	.	.	.
.	.	.	.	.	.	.
.	.	8ree	.	.	.	.
.	.	.	.	.	.	.
.	.	.	.	.	.	.
4AAA	4re	16Ree/	4r	.	4r	B 9
.	.	16ree	.	.	.	.
.	.	.	.	.	.	.
.	.	8ree	.	.	.	.
.	.	.	.	.	.	.
.	.	.	.	.	.	.
=59	=59	=59	=59	=59	=59	=59
*	*head:regular	*head:x	*	*	*	*
4CC	4re	16Ree/	4E A	1ryy	4d g	C k
.	.	16ree	.	.	.	.
.	.	.	.	.	.	.
.	.	8ree	.	.	.	.
.	.	.	.	.	.	.
.	.	.	.	.	.	.
6GG	4re	16Ree/	4r	.	4r	.
.	.	16ree	.	.	.	.
.	.	.	.	.	.	.
.	.	8ree	.	.	.	.
12r	.	.	.	.	.	.
.	.	.	.	.	.	.
4GG#	4re	16Ree/	4D G#	.	4c e	E q
.	.	16ree	.	.	.	.
.	.	.	.	.	.	.
.	.	8ree	.	.	.	.
.	.	.	.	.	.	.
.	.	.	.	.	.	.
4BB	4re	16Ree/	4r	.	4r	.
.	.	16ree	.	.	.	.
.	.	.	.	.	.	.
.	.	8ree	.	.	.	.
.	.	.	.	.	.	.
.	.	.	.	.	.	.
=60	=60	=60	=60	=60	=60	=60
*	*head:regular	*head:x	*	*	*	*
4C	16Rf\	16Ree/	4F A	1ryy	4d g	F k
.	16re	16ree	.	.	.	.
.	.	.	.	.	.	.
.	8re	8ree	.	.	.	.
.	.	.	.	.	.	.
.	.	.	.	.	.	.
4F	16Rf\	16Ree/	4r	.	4r	.
.	16re	16ree	.	.	.	.
.	.	.	.	.	.	.
.	8re	8ree	.	.	.	.
.	.	.	.	.	.	.
.	.	.	.	.	.	.
4GG#	4re	16Ree/	4G#	.	4d g cc	F Z
.	.	16ree	.	.	.	.
.	.	.	.	.	.	.
.	.	8ree	.	.	.	.
.	.	.	.	.	.	.
.	.	.	.	.	.	.
4FFF	4re	16Ree/	4r	.	4r	.
.	.	16ree	.	.	.	.
.	.	.	.	.	.	.
.	.	8ree	.	.	.	.
.	.	.	.	.	.	.
.	.	.	.	.	.	.
=61	=61	=61	=61	=61	=61	=61
*	*head:regular	*head:x	*	*	*	*
4EEE	4re	12Ree/	4E A	1ryy	4d g	C k
.	.	.	.	.	.	.
.	.	12ree	.	.	.	.
.	.	.	.	.	.	.
.	.	12ree	.	.	.	.
.	.	.	.	.	.	.
8.EEE	4re	12Ree/	4r	.	4r	.
.	.	.	.	.	.	.
.	.	12ree	.	.	.	.
.	.	.	.	.	.	.
.	.	12ree	.	.	.	.
16r	.	.	.	.	.	.
6EEE	4re	12Ree/	4r	.	4r	A 9
.	.	.	.	.	.	.
.	.	12ree	.	.	.	.
.	.	.	.	.	.	.
12r	.	12ree	.	.	.	.
.	.	.	.	.	.	.
4GGG	4re	16Ree/	4r	.	4r	.
.	.	16ree	.	.	.	.
.	.	.	.	.	.	.
.	.	8ree	.	.	.	.
.	.	.	.	.	.	.
.	.	.	.	.	.	.
=62	=62	=62	=62	=62	=62	=62
*	*head:regular	*head:x	*	*	*	*
4DD	4re	12Ree/	4r	1ryy	4r	D h
.	.	.	.	.	.	.
.	.	12ree	.	.	.	.
.	.	.	.	.	.	.
.	.	12ree	.	.	.	.
.	.	.	.	.	.	.
4AAA	4re	12Ree/	4r	.	4r	.
.	.	.	.	.	.	.
.	.	12ree	.	.	.	.
.	.	.	.	.	.	.
.	.	12ree	.	.	.	.
.	.	.	.	.	.	.
4FFF#	4re	12Ree/	4A	.	4e f# cc#	F+ b
.	.	.	.	.	.	.
.	.	12ree	.	.	.	.
.	.	.	.	.	.	.
.	.	12ree	.	.	.	.
.	.	.	.	.	.	.
8.BBB	4re	12Ree/	4r	.	4r	B p
.	.	.	.	.	.	.
.	.	12ree	.	.	.	.
.	.	.	.	.	.	.
.	.	12ree	.	.	.	.
16r	.	.	.	.	.	.
=63	=63	=63	=63	=63	=63	=63
*	*head:regular	*head:x	*	*	*	*
8CC	4re	12Ree/	4r	1ryy	4r	C 6
.	.	.	.	.	.	.
.	.	12ree	.	.	.	.
8r	.	.	.	.	.	.
.	.	12ree	.	.	.	.
.	.	.	.	.	.	.
4GG	4re	16Ree/	4r	.	4r	.
.	.	16ree	.	.	.	.
.	.	.	.	.	.	.
.	.	8ree	.	.	.	.
.	.	.	.	.	.	.
.	.	.	.	.	.	.
4EE	4re	12Ree/	4G	.	4c d b	A i
.	.	.	.	.	.	.
.	.	12ree	.	.	.	.
.	.	.	.	.	.	.
.	.	12ree	.	.	.	.
.	.	.	.	.	.	.
4AAA#	12Rf\	16Ree/	4r	.	4r	.
.	.	16ree	.	.	.	.
.	12re	.	.	.	.	.
.	.	8ree	.	.	.	.
.	12re	.	.	.	.	.
.	.	.	.	.	.	.
=64	=64	=64	=64	=64	=64	=64
*	*head:regular	*head:x	*	*	*	*
4AAA	4re	12Ree/	4r	1ryy	4r	D h
.	.	.	.	.	.	.
.	.	12ree	.	.	.	.
.	.	.	.	.	.	.
.	.	12ree	.	.	.	.
.	.	.	.	.	.	.
4CC	4re	12Ree/	4r	.	4r	.
.	.	.	.	.	.	.
.	.	12ree	.	.	.	.
.	.	.	.	.	.	.
.	.	12ree	.	.	.	.
.	.	.	.	.	.	.
8CC#	4re	4ree	4E A B	.	4g#	F+ i
.	.	.	.	.	.	.
.	.	.	.	.	.	.
8r	.	.	.	.	.	.
.	.	.	.	.	.	.
.	.	.	.	.	.	.
8CC	16Rf\	16Ree/	4r	.	4r	B 9
.	16re	16ree	.	.	.	.
.	.	.	.	.	.	.
8r	8re	8ree	.	.	.	.
.	.	.	.	.	.	.
.	.	.	.	.	.	.
=65	=65	=65	=65	=65	=65	=65
*	*head:regular	*head:x	*	*	*	*
4r	4re	4ree	4r	1ryy	4r	C 6
.	.	.	.	.	.	.
.	.	.	.	.	.	.
.	.	.	.	.	.	.
.	.	.	.	.	.	.
.	.	.	.	.	.	.
4GGG	4re	12Ree/	4r	.	4r	.
.	.	.	.	.	.	.
.	.	12ree	.	.	.	.
.	.	.	.	.	.	.
.	.	12ree	.	.	.	.
.	.	.	.	.	.	.
4CC#	4re	12Ree/	4r	.	4r	A U
.	.	.	.	.	.	.
.	.	12ree	.	.	.	.
.	.	.	.	.	.	.
.	.	12ree	.	.	.	.
.	.	.	.	.	.	.
6EE	4re	12Ree/	4r	.	4r	.
.	.	.	.	.	.	.
.	.	12ree	.	.	.	.
.	.	.	.	.	.	.
12r	.	12ree	.	.	.	.
.	.	.	.	.	.	.
=66	=66	=66	=66	=66	=66	=66
*	*head:regular	*head:x	*	*	*	*
4FF	4re	12Ree/	4r	1ryy	4r	D b
.	.	.	.	.	.	.
.	.	12ree	.	.	.	.
.	.	.	.	.	.	.
.	.	12ree	.	.	.	.
.	.	.	.	.	.	.
4DD	4re	12Ree/	4r	.	4r	.
.	.	.	.	.	.	.
.	.	12ree	.	.	.	.
.	.	.	.	.	.	.
.	.	12ree	.	.	.	.
.	.	.	.	.	.	.
4CC#	4re	12Ree/	6E A B	.	6g#	F+ i
.	.	.	.	.	.	.
.	.	12ree	.	.	.	.
.	.	.	.	.	.	.
.	.	12ree	12r	.	12r	.
.	.	.	.	.	.	.
8CC	4re	16Ree/	4r	.	4r	B 9
.	.	16ree	.	.	.	.
.	.	.	.	.	.	.
8r	.	8ree	.	.	.	.
.	.	.	.	.	.	.
.	.	.	.	.	.	.
=67	=67	=67	=67	=67	=67	=67
*	*head:regular	*head:x	*	*	*	*
8.CC	4re	12Ree/	4r	1ryy	4r	C k
.	.	.	.	.	.	.
.	.	12ree	.	.	.	.
.	.	.	.	.	.	.
.	.	12ree	.	.	.	.
16r	.	.	.	.	.	.
4GGG	4re	12Ree/	4r	.	4r	.
.	.	.	.	.	.	.
.	.	12ree	.	.	.	.
.	.	.	.	.	.	.
.	.	12ree	.	.	.	.
.	.	.	.	.	.	.
4FFF	4re	12Ree/	4r	.	4r	D i
.	.	.	.	.	.	.
.	.	12ree	.	.	.	.
.	.	.	.	.	.	.
.	.	12ree	.	.	.	.
.	.	.	.	.	.	.
4GGG	4re	12Ree/	4r	.	4r	.
.	.	.	.	.	.	.
.	.	12ree	.	.	.	.
.	.	.	.	.	.	.
.	.	12ree	.	.	.	.
.	.	.	.	.	.	.
=68	=68	=68	=68	=68	=68	=68
*	*head:regular	*head:x	*	*	*	*
4CC#	4re	12Ree/	6F B	1ryy	6d# a#	C+ U
.	.	.	.	.	.	.
.	.	12ree	.	.	.	.
.	.	.	.	.	.	.
.	.	12ree	12r	.	12r	.
.	.	.	.	.	.	.
4GGG#	4re	12Ree/	4F B	.	4d# a#	.
.	.	.	.	.	.	.
.	.	12ree	.	.	.	.
.	.	.	.	.	.	.
.	.	12ree	.	.	.	.
.	.	.	.	.	.	.
4EE	4re	12Ree/	4r	.	4r	C 6
.	.	.	.	.	.	.
.	.	12ree	.	.	.	.
.	.	.	.	.	.	.
.	.	12ree	.	.	.	.
.	.	.	.	.	.	.
6EE	4re	16Ree/	4r	.	4r	.
.	.	16ree	.	.	.	.
.	.	.	.	.	.	.
.	.	8ree	.	.	.	.
12r	.	.	.	.	.	.
.	.	.	.	.	.	.
=69	=69	=69	=69	=69	=69	=69
*	*head:regular	*head:x	*	*	*	*
6EE	12Rf\	12Ree/	4r	1ryy	4r	C k
.	.	.	.	.	.	.
.	12re	12ree	.	.	.	.
.	.	.	.	.	.	.
12r	12re	12ree	.	.	.	.
.	.	.	.	.	.	.
8.AA	4re	12Ree/	4E A	.	4d g	.
.	.	.	.	.	.	.
.	.	12ree	.	.	.	.
.	.	.	.	.	.	.
.	.	12ree	.	.	.	.
16r	.	.	.	.	.	.
4AA	4re	12Ree/	4r	.	4r	D i
.	.	.	.	.	.	.
.	.	12ree	.	.	.	.
.	.	.	.	.	.	.
.	.	12ree	.	.	.	.
.	.	.	.	.	.	.
4FF	4re	12Ree/	4r	.	4r	.
.	.	.	.	.	.	.
.	.	12ree	.	.	.	.
.	.	.	.	.	.	.
.	.	12ree	.	.	.	.
.	.	.	.	.	.	.
=70	=70	=70	=70	=70	=70	=70
*	*head:regular	*head:x	*	*	*	*
8CC#	12Rf\	12Ree/	4r	1ryy	4r	C+ 9
.	.	.	.	.	.	.
.	12re	12ree	.	.	.	.
8r	.	.	.	.	.	.
.	12re	12ree	.	.	.	.
.	.	.	.	.	.	.
4GGG#	4re	12Ree/	4r	.	4r	.
.	.	.	.	.	.	.
.	.	12ree	.	.	.	.
.	.	.	.	.	.	.
.	.	12ree	.	.	.	.
.	.	.	.	.	.	.
4GGG	4re	12Ree/	6E A	.	6d g	C k
.	.	.	.	.	.	.
.	.	12ree	.	.	.	.
.	.	.	.	.	.	.
.	.	12ree	12r	.	12r	.
.	.	.	.	.	.	.
6CC	4re	12Ree/	4r	.	4r	.
.	.	.	.	.	.	.
.	.	12ree	.	.	.	.
.	.	.	.	.	.	.
12r	.	12ree	.	.	.	.
.	.	.	.	.	.	.
=71	=71	=71	=71	=71	=71	=71
*	*head:regular	*head:x	*	*	*	*
4BBB	4re	12Ree/	4D G# B	1ryy	4f#	E 9
.	.	.	.	.	.	.
.	.	12ree	.	.	.	.
.	.	.	.	.	.	.
.	.	12ree	.	.	.	.
.	.	.	.	.	.	.
4EE	4re	12Ree/	4r	.	4r	.
.	.	.	.	.	.	.
.	.	12ree	.	.	.	.
.	.	.	.	.	.	.
.	.	12ree	.	.	.	.
.	.	.	.	.	.	.
4AAA	4re	12Ree/	4r	.	4r	D i
.	.	.	.	.	.	.
.	.	12ree	.	.	.	.
.	.	.	.	.	.	.
.	.	12ree	.	.	.	.
.	.	.	.	.	.	.
4CC	4re	12Ree/	4r	.	4r	.
.	.	.	.	.	.	.
.	.	12ree	.	.	.	.
.	.	.	.	.	.	.
.	.	12ree	.	.	.	.
.	.	.	.	.	.	.
=72	=72	=72	=72	=72	=72	=72
*	*head:regular	*head:x	*	*	*	*
4CC#	4re	12Ree/	4r	1ryy	4r	C+ U
.	.	.	.	.	.	.
.	.	12ree	.	.	.	.
.	.	.	.	.	.	.
.	.	12ree	.	.	.	.
.	.	.	.	.	.	.
4FF	4re	12Ree/	6B	.	6f a# dd#	.
.	.	.	.	.	.	.
.	.	12ree	.	.	.	.
.	.	.	.	.	.	.
.	.	12ree	12r	.	12r	.
.	.	.	.	.	.	.
8GG	4re	4ree	4E A	.	4d g	C k
.	.	.	.	.	.	.
.	.	.	.	.	.	.
8r	.	.	.	.	.	.
.	.	.	.	.	.	.
.	.	.	.	.	.	.
8DD	4re	16Ree/	4r	.	4r	.
.	.	16ree	.	.	.	.
.	.	.	.	.	.	.
8r	.	8ree	.	.	.	.
.	.	.	.	.	.	.
.	.	.	.	.	.	.
=73	=73	=73	=73	=73	=73	=73
*	*head:regular	*head:x	*	*	*	*
6CC	4re	4ree	4r	1ryy	4r	C k
.	.	.	.	.	.	.
.	.	.	.	.	.	.
.	.	.	.	.	.	.
12r	.	.	.	.	.	.
.	.	.	.	.	.	.
4EE	4re	12Ree/	4r	.	4r	.
.	.	.	.	.	.	.
.	.	12ree	.	.	.	.
.	.	.	.	.	.	.
.	.	12ree	.	.	.	.
.	.	.	.	.	.	.
4CC#	4re	12Ree/	4r	.	4r	A 9
.	.	.	.	.	.	.
.	.	12ree	.	.	.	.
.	.	.	.	.	.	.
.	.	12ree	.	.	.	.
.	.	.	.	.	.	.
4BBB	4re	16Ree/	4r	.	4r	.
.	.	16ree	.	.	.	.
.	.	.	.	.	.	.
.	.	8ree	.	.	.	.
.	.	.	.	.	.	.
.	.	.	.	.	.	.
=74	=74	=74	=74	=74	=74	=74
*	*head:regular	*head:x	*	*	*	*
4AAA	4re	12Ree/	4F	1ryy	4c e a dd aa	D h
.	.	.	.	.	.	.
.	.	12ree	.	.	.	.
.	.	.	.	.	.	.
.	.	12ree	.	.	.	.
.	.	.	.	.	.	.
4DD	4re	12Ree/	4r	.	4r	.
.	.	.	.	.	.	.
.	.	12ree	.	.	.	.
.	.	.	.	.	.	.
.	.	12ree	.	.	.	.
.	.	.	.	.	.	.
4CC#	4re	12Ree/	4r	.	4r	F+ i
.	.	.	.	.	.	.
.	.	12ree	.	.	.	.
.	.	.	.	.	.	.
.	.	12ree	.	.	.	.
.	.	.	.	.	.	.
4FF#	4re	12Ree/	4r	.	4r	B 9
.	.	.	.	.	.	.
.	.	12ree	.	.	.	.
.	.	.	.	.	.	.
.	.	12ree	.	.	.	.
.	.	.	.	.	.	.
=75	=75	=75	=75	=75	=75	=75
*	*head:regular	*head:x	*	*	*	*
4EE	4re	12Ree/	8.C E A	1ryy	8.c	C 6
.	.	.	.	.	.	.
.	.	12ree	.	.	.	.
.	.	.	.	.	.	.
.	.	12ree	.	.	.	.
.	.	.	16r	.	16r	.
6GG	4re	12Ree/	8.E	.	8.c a cc aa	.
.	.	.	.	.	.	.
.	.	12ree	.	.	.	.
.	.	.	.	.	.	.
12r	.	12ree	.	.	.	.
.	.	.	16r	.	16r	.
4CC	4re	12Ree/	8.D G#	.	8.c e	E q
.	.	.	.	.	.	.
.	.	12ree	.	.	.	.
.	.	.	.	.	.	.
.	.	12ree	.	.	.	.
.	.	.	16r	.	16r	.
4BBB	4re	12Ree/	8.D G#	.	8.c e	.
.	.	.	.	.	.	.
.	.	12ree	.	.	.	.
.	.	.	.	.	.	.
.	.	12ree	.	.	.	.
.	.	.	16r	.	16r	.
=76	=76	=76	=76	=76	=76	=76
*	*head:regular	*head:x	*	*	*	*
4CC	4re	12Ree/	6F A	1ryy	6d g	F k
.	.	.	.	.	.	.
.	.	12ree	.	.	.	.
.	.	.	.	.	.	.
.	.	12ree	12r	.	12r	.
.	.	.	.	.	.	.
4AAA	4re	12Ree/	4r	.	4r	.
.	.	.	.	.	.	.
.	.	12ree	.	.	.	.
.	.	.	.	.	.	.
.	.	12ree	.	.	.	.
.	.	.	.	.	.	.
4FFF	4re	12Ree/	4r	.	4r	F j
.	.	.	.	.	.	.
.	.	12ree	.	.	.	.
.	.	.	.	.	.	.
.	.	12ree	.	.	.	.
.	.	.	.	.	.	.
4CC	4re	16Ree/	4r	.	4r	.
.	.	16ree	.	.	.	.
.	.	.	.	.	.	.
.	.	8ree	.	.	.	.
.	.	.	.	.	.	.
.	.	.	.	.	.	.
=77	=77	=77	=77	=77	=77	=77
*	*head:regular	*head:x	*	*	*	*
4EEE	16Rf\	16Ree/	12E	1ryy	12c a cc aa	C 6
.	16re	16ree	.	.	.	.
.	.	.	12r	.	12r	.
.	8re	8ree	.	.	.	.
.	.	.	12r	.	12r	.
.	.	.	.	.	.	.
4AAA	4re	16Ree/	4r	.	4r	.
.	.	16ree	.	.	.	.
.	.	.	.	.	.	.
.	.	8ree	.	.	.	.
.	.	.	.	.	.	.
.	.	.	.	.	.	.
4AA	4re	16Ree/	4r	.	4r	A 7
.	.	16ree	.	.	.	.
.	.	.	.	.	.	.
.	.	8ree	.	.	.	.
.	.	.	.	.	.	.
.	.	.	.	.	.	.
4D	4re	16Ree/	4r	.	4r	.
.	.	16ree	.	.	.	.
.	.	.	.	.	.	.
.	.	8ree	.	.	.	.
.	.	.	.	.	.	.
.	.	.	.	.	.	.
=78	=78	=78	=78	=78	=78	=78
*	*head:regular	*head:x	*	*	*	*
4D	4re	16Ree/	4r	1ryy	4r	D h
.	.	16ree	.	.	.	.
.	.	.	.	.	.	.
.	.	8ree	.	.	.	.
.	.	.	.	.	.	.
.	.	.	.	.	.	.
4F	4re	16Ree/	4r	.	4r	.
.	.	16ree	.	.	.	.
.	.	.	.	.	.	.
.	.	8ree	.	.	.	.
.	.	.	.	.	.	.
.	.	.	.	.	.	.
4FF#	4re	16Ree/	6A	.	6e f# cc#	F+ b
.	.	16ree	.	.	.	.
.	.	.	.	.	.	.
.	.	8ree	.	.	.	.
.	.	.	12r	.	12r	.
.	.	.	.	.	.	.
4BB	4re	16Ree/	4r	.	4r	B 7
.	.	16ree	.	.	.	.
.	.	.	.	.	.	.
.	.	8ree	.	.	.	.
.	.	.	.	.	.	.
.	.	.	.	.	.	.
=79	=79	=79	=79	=79	=79	=79
*	*head:regular	*head:x	*	*	*	*
4CC	4re	16Ree/	4r	1ryy	4r	C 6
.	.	16ree	.	.	.	.
.	.	.	.	.	.	.
.	.	8ree	.	.	.	.
.	.	.	.	.	.	.
.	.	.	.	.	.	.
4FFF#	4re	16Ree/	4r	.	4r	.
.	.	16ree	.	.	.	.
.	.	.	.	.	.	.
.	.	8ree	.	.	.	.
.	.	.	.	.	.	.
.	.	.	.	.	.	.
4FFF	4re	4ree	4r	.	4r	F k
.	.	.	.	.	.	.
.	.	.	.	.	.	.
.	.	.	.	.	.	.
.	.	.	.	.	.	.
.	.	.	.	.	.	.
4CC	4re	16Ree/	4r	.	4r	F Z
.	.	16ree	.	.	.	.
.	.	.	.	.	.	.
.	.	8ree	.	.	.	.
.	.	.	.	.	.	.
.	.	.	.	.	.	.
=80	=80	=80	=80	=80	=80	=80
*	*head:regular	*head:x	*	*	*	*
4CC	4re	16Ree/	6C E A	1ryy	6d	C k
.	.	16ree	.	.	.	.
.	.	.	.	.	.	.
.	.	8ree	.	.	.	.
.	.	.	12r	.	12r	.
.	.	.	.	.	.	.
4AAA	4re	16Ree/	4E A	.	4d g cc gg	.
.	.	16ree	.	.	.	.
.	.	.	.	.	.	.
.	.	8ree	.	.	.	.
.	.	.	.	.	.	.
.	.	.	.	.	.	.
8GGG#	4re	16Ree/	4D G# B	.	4f# b ff#	E 9
.	.	16ree	.	.	.	.
.	.	.	.	.	.	.
8r	.	8ree	.	.	.	.
.	.	.	.	.	.	.
.	.	.	.	.	.	.
8BBB	4re	16Ree/	4r	.	4r	.
.	.	16ree	.	.	.	.
.	.	.	.	.	.	.
8r	.	8ree	.	.	.	.
.	.	.	.	.	.	.
.	.	.	.	.	.	.
=81	=81	=81	=81	=81	=81	=81
*	*head:regular	*head:x	*	*	*	*
4AAA	4re	4ree	4r	1ryy	4r	A Z
.	.	.	.	.	.	.
.	.	.	.	.	.	.
.	.	.	.	.	.	.
.	.	.	.	.	.	.
.	.	.	.	.	.	.
4EEE	4re	16Ree/	4r	.	4r	.
.	.	16ree	.	.	.	.
.	.	.	.	.	.	.
.	.	8ree	.	.	.	.
.	.	.	.	.	.	.
.	.	.	.	.	.	.
4AA	16Rf\	4ree	4r	.	4r	.
.	16re	.	.	.	.	.
.	.	.	.	.	.	.
.	8re	.	.	.	.	.
.	.	.	.	.	.	.
.	.	.	.	.	.	.
6E	4re	16Ree/	4r	.	4r	.
.	.	16ree	.	.	.	.
.	.	.	.	.	.	.
.	.	8ree	.	.	.	.
12r	.	.	.	.	.	.
.	.	.	.	.	.	.
=82	=82	=82	=82	=82	=82	=82
*	*head:regular	*head:x	*	*	*	*
4FFF	16Rf\	4ree	4r	1ryy	4r	F U
.	16re	.	.	.	.	.
.	.	.	.	.	.	.
.	8re	.	.	.	.	.
.	.	.	.	.	.	.
.	.	.	.	.	.	.
4CC	4re	16Ree/	4r	.	4r	.
.	.	16ree	.	.	.	.
.	.	.	.	.	.	.
.	.	8ree	.	.	.	.
.	.	.	.	.	.	.
.	.	.	.	.	.	.
4CC	4re	4ree	6D# A	.	6d g	.
.	.	.	.	.	.	.
.	.	.	.	.	.	.
.	.	.	.	.	.	.
.	.	.	12r	.	12r	.
.	.	.	.	.	.	.
8.FF	16Rf\	16Ree/	4r	.	4r	.
.	16re	16ree	.	.	.	.
.	.	.	.	.	.	.
.	8re	8ree	.	.	.	.
.	.	.	.	.	.	.
16r	.	.	.	.	.	.
=83	=83	=83	=83	=83	=83	=83
*	*head:regular	*head:x	*	*	*	*
8.FFF	4re	4ree	4r	1ryy	4r	D h
.	.	.	.	.	.	.
.	.	.	.	.	.	.
.	.	.	.	.	.	.
.	.	.	.	.	.	.
16r	.	.	.	.	.	.
4AAA	16Rf\	16Ree/	4r	.	4r	.
.	16re	16ree	.	.	.	.
.	.	.	.	.	.	.
.	8re	8ree	.	.	.	.
.	.	.	.	.	.	.
.	.	.	.	.	.	.
8DD	4re	4ree	6C F A	.	6e	.
.	.	.	.	.	.	.
.	.	.	.	.	.	.
8r	.	.	.	.	.	.
.	.	.	12r	.	12r	.
.	.	.	.	.	.	.
4FF	4re	16Ree/	4r	.	4r	.
.	.	16ree	.	.	.	.
.	.	.	.	.	.	.
.	.	8ree	.	.	.	.
.	.	.	.	.	.	.
.	.	.	.	.	.	.
=84	=84	=84	=84	=84	=84	=84
*	*head:regular	*head:x	*	*	*	*
4FF	4re	4ree	6B	1ryy	6f g# dd#	C+ 9
.	.	.	.	.	.	.
.	.	.	.	.	.	.
.	.	.	.	.	.	.
.	.	.	12r	.	12r	.
.	.	.	.	.	.	.
4DD#	4re	16Ree/	4r	.	4r	.
.	.	16ree	.	.	.	.
.	.	.	.	.	.	.
.	.	8ree	.	.	.	.
.	.	.	.	.	.	.
.	.	.	.	.	.	.
4CC#	4re	4ree	4r	.	4r	.
.	.	.	.	.	.	.
.	.	.	.	.	.	.
.	.	.	.	.	.	.
.	.	.	.	.	.	.
.	.	.	.	.	.	.
4CC#	4re	16Ree/	4r	.	4r	.
.	.	16ree	.	.	.	.
.	.	.	.	.	.	.
.	.	8ree	.	.	.	.
.	.	.	.	.	.	.
.	.	.	.	.	.	.
=85	=85	=85	=85	=85	=85	=85
*	*head:regular	*head:x	*	*	*	*
6CC	12Rf\	4ree	4E	1ryy	4c g a cc	C 6
.	.	.	.	.	.	.
.	12re	.	.	.	.	.
.	.	.	.	.	.	.
12r	12re	.	.	.	.	.
.	.	.	.	.	.	.
8.GGG	4re	16Ree/	4r	.	4r	.
.	.	16ree	.	.	.	.
.	.	.	.	.	.	.
.	.	8ree	.	.	.	.
.	.	.	.	.	.	.
16r	.	.	.	.	.	.
4GGG#	4re	4ree	4r	.	4r	E U
.	.	.	.	.	.	.
.	.	.	.	.	.	.
.	.	.	.	.	.	.
.	.	.	.	.	.	.
.	.	.	.	.	.	.
4EEE	4re	16Ree/	4r	.	4r	.
.	.	16ree	.	.	.	.
.	.	.	.	.	.	.
.	.	8ree	.	.	.	.
.	.	.	.	.	.	.
.	.	.	.	.	.	.
=86	=86	=86	=86	=86	=86	=86
*	*head:regular	*head:x	*	*	*	*
8CC	12Rf\	4ree	4r	1ryy	4r	A i
.	.	.	.	.	.	.
.	12re	.	.	.	.	.
8r	.	.	.	.	.	.
.	12re	.	.	.	.	.
.	.	.	.	.	.	.
4DD	4re	16Ree/	4r	.	4r	.
.	.	16ree	.	.	.	.
.	.	.	.	.	.	.
.	.	8ree	.	.	.	.
.	.	.	.	.	.	.
.	.	.	.	.	.	.
4GG#	4re	4ree	6F#	.	6c d g#	G+ t
.	.	.	.	.	.	.
.	.	.	.	.	.	.
.	.	.	.	.	.	.
.	.	.	12r	.	12r	.
.	.	.	.	.	.	.
6C	4re	16Ree/	4r	.	4r	.
.	.	16ree	.	.	.	.
.	.	.	.	.	.	.
.	.	8ree	.	.	.	.
12r	.	.	.	.	.	.
.	.	.	.	.	.	.
=87	=87	=87	=87	=87	=87	=87
*	*head:regular	*head:x	*	*	*	*
4BB	4re	4ree	4r	1ryy	4r	G U
.	.	.	.	.	.	.
.	.	.	.	.	.	.
.	.	.	.	.	.	.
.	.	.	.	.	.	.
.	.	.	.	.	.	.
4AA	4re	16Ree/	4r	.	4r	.
.	.	16ree	.	.	.	.
.	.	.	.	.	.	.
.	.	8ree	.	.	.	.
.	.	.	.	.	.	.
.	.	.	.	.	.	.
4AA	4re	4ree	6G	.	6c# f# b	A U
.	.	.	.	.	.	.
.	.	.	.	.	.	.
.	.	.	.	.	.	.
.	.	.	12r	.	12r	.
.	.	.	.	.	.	.
4GG	4re	16Ree/	4r	.	4r	.
.	.	16ree	.	.	.	.
.	.	.	.	.	.	.
.	.	8ree	.	.	.	.
.	.	.	.	.	.	.
.	.	.	.	.	.	.
=88	=88	=88	=88	=88	=88	=88
*	*head:regular	*head:x	*	*	*	*
4DD	4re	4ree	6F	1ryy	6c e a dd aa	D h
.	.	.	.	.	.	.
.	.	.	.	.	.	.
.	.	.	.	.	.	.
.	.	.	12r	.	12r	.
.	.	.	.	.	.	.
4CC	4re	16Ree/	4r	.	4r	.
.	.	16ree	.	.	.	.
.	.	.	.	.	.	.
.	.	8ree	.	.	.	.
.	.	.	.	.	.	.
.	.	.	.	.	.	.
8FFF#	4re	4ree	4A	.	4e f# cc#	F+ b
.	.	.	.	.	.	.
.	.	.	.	.	.	.
8r	.	.	.	.	.	.
.	.	.	.	.	.	.
.	.	.	.	.	.	.
4r	4re	16Ree/	4r	.	4r	B 7
.	.	16ree	.	.	.	.
.	.	.	.	.	.	.
.	.	8ree	.	.	.	.
.	.	.	.	.	.	.
.	.	.	.	.	.	.
=89	=89	=89	=89	=89	=89	=89
*	*head:regular	*head:x	*	*	*	*
4CC	4re	4ree	4r	1ryy	4r	C 6
.	.	.	.	.	.	.
.	.	.	.	.	.	.
.	.	.	.	.	.	.
.	.	.	.	.	.	.
.	.	.	.	.	.	.
8.AAA	4re	16Ree/	4r	.	4r	.
.	.	16ree	.	.	.	.
.	.	.	.	.	.	.
.	.	8ree	.	.	.	.
.	.	.	.	.	.	.
16r	.	.	.	.	.	.
6EEE	12Rf\	12Ree/	4G	.	4c# f# b	A U
.	.	.	.	.	.	.
.	12re	12ree	.	.	.	.
.	.	.	.	.	.	.
12r	12re	12ree	.	.	.	.
.	.	.	.	.	.	.
4AAA	4re	16Ree/	4r	.	4r	.
.	.	16ree	.	.	.	.
.	.	.	.	.	.	.
.	.	8ree	.	.	.	.
.	.	.	.	.	.	.
.	.	.	.	.	.	.
=90	=90	=90	=90	=90	=90	=90
*	*head:regular	*head:x	*	*	*	*
4DD	12Rf\	12Ree/	4r	1ryy	4r	D b
.	.	.	.	.	.	.
.	12re	12ree	.	.	.	.
.	.	.	.	.	.	.
.	12re	12ree	.	.	.	.
.	.	.	.	.	.	.
4FF	4re	12Ree/	4r	.	4r	.
.	.	.	.	.	.	.
.	.	12ree	.	.	.	.
.	.	.	.	.	.	.
.	.	12ree	.	.	.	.
.	.	.	.	.	.	.
4AA	12Rf\	12Ree/	6E A	.	6c# f#	F+ b
.	.	.	.	.	.	.
.	12re	12ree	.	.	.	.
.	.	.	.	.	.	.
.	12re	12ree	12r	.	12r	.
.	.	.	.	.	.	.
8.DD#	4re	12Ree/	4r	.	4r	B 7
.	.	.	.	.	.	.
.	.	12ree	.	.	.	.
.	.	.	.	.	.	.
.	.	12ree	.	.	.	.
16r	.	.	.	.	.	.
=91	=91	=91	=91	=91	=91	=91
*	*head:regular	*head:x	*	*	*	*
8EEE	12Rf\	12Ree/	4r	1ryy	4r	C k
.	.	.	.	.	.	.
.	12re	12ree	.	.	.	.
8r	.	.	.	.	.	.
.	12re	12ree	.	.	.	.
.	.	.	.	.	.	.
4AAA	4re	12Ree/	4r	.	4r	.
.	.	.	.	.	.	.
.	.	12ree	.	.	.	.
.	.	.	.	.	.	.
.	.	12ree	.	.	.	.
.	.	.	.	.	.	.
4DD	12Rf\	12Ree/	4C F A	.	4e	D h
.	.	.	.	.	.	.
.	12re	12ree	.	.	.	.
.	.	.	.	.	.	.
.	12re	12ree	.	.	.	.
.	.	.	.	.	.	.
4AAA	4re	12Ree/	4r	.	4r	.
.	.	.	.	.	.	.
.	.	12ree	.	.	.	.
.	.	.	.	.	.	.
.	.	12ree	.	.	.	.
.	.	.	.	.	.	.
=92	=92	=92	=92	=92	=92	=92
*	*head:regular	*head:x	*	*	*	*
4GGG#	12Rf\	12Ree/	4r	1ryy	4r	C+ t
.	.	.	.	.	.	.
.	12re	12ree	.	.	.	.
.	.	.	.	.	.	.
.	12re	12ree	.	.	.	.
.	.	.	.	.	.	.
4BBB	4re	12Ree/	4F B	.	4c# g	.
.	.	.	.	.	.	.
.	.	12ree	.	.	.	.
.	.	.	.	.	.	.
.	.	12ree	.	.	.	.
.	.	.	.	.	.	.
4CC	4re	12Ree/	4r	.	4r	C k
.	.	.	.	.	.	.
.	.	12ree	.	.	.	.
.	.	.	.	.	.	.
.	.	12ree	.	.	.	.
.	.	.	.	.	.	.
4DD#	4re	12Ree/	8.C E A	.	8.d	.
.	.	.	.	.	.	.
.	.	12ree	.	.	.	.
.	.	.	.	.	.	.
.	.	12ree	.	.	.	.
.	.	.	16r	.	16r	.
=93	=93	=93	=93	=93	=93	=93
*	*head:regular	*head:x	*	*	*	*
4EE	4re	16Ree/	6C E A	1ryy	6d	C k
.	.	16ree	.	.	.	.
.	.	.	.	.	.	.
.	.	8ree	.	.	.	.
.	.	.	12r	.	12r	.
.	.	.	.	.	.	.
4CC	4re	16Ree/	4r	.	4r	.
.	.	16ree	.	.	.	.
.	.	.	.	.	.	.
.	.	8ree	.	.	.	.
.	.	.	.	.	.	.
.	.	.	.	.	.	.
4CC#	4re	16Ree/	4r	.	4r	A U
.	.	16ree	.	.	.	.
.	.	.	.	.	.	.
.	.	8ree	.	.	.	.
.	.	.	.	.	.	.
.	.	.	.	.	.	.
6AAA	4re	16Ree/	4r	.	4r	.
.	.	16ree	.	.	.	.
.	.	.	.	.	.	.
.	.	8ree	.	.	.	.
12r	.	.	.	.	.	.
.	.	.	.	.	.	.
=94	=94	=94	=94	=94	=94	=94
*	*head:regular	*head:x	*	*	*	*
4DD	4re	16Ree/	4r	1ryy	4r	D a
.	.	16ree	.	.	.	.
.	.	.	.	.	.	.
.	.	8ree	.	.	.	.
.	.	.	.	.	.	.
.	.	.	.	.	.	.
4FF	4re	16Ree/	4r	.	4r	.
.	.	16ree	.	.	.	.
.	.	.	.	.	.	.
.	.	8ree	.	.	.	.
.	.	.	.	.	.	.
.	.	.	.	.	.	.
4FFF#	4re	16Ree/	6E A	.	6c# g#	F+ h
.	.	16ree	.	.	.	.
.	.	.	.	.	.	.
.	.	8ree	.	.	.	.
.	.	.	12r	.	12r	.
.	.	.	.	.	.	.
8AAA	4re	16Ree/	4r	.	4r	B 7
.	.	16ree	.	.	.	.
.	.	.	.	.	.	.
8r	.	8ree	.	.	.	.
.	.	.	.	.	.	.
.	.	.	.	.	.	.
=95	=95	=95	=95	=95	=95	=95
*	*head:regular	*head:x	*	*	*	*
8.CC	4re	16Ree/	4r	1ryy	4r	C k
.	.	16ree	.	.	.	.
.	.	.	.	.	.	.
.	.	8ree	.	.	.	.
.	.	.	.	.	.	.
16r	.	.	.	.	.	.
4GGG	16Rcc\	16Ree/	4r	.	4r	.
.	16re	16ree	.	.	.	.
.	.	.	.	.	.	.
.	8re	8ree	.	.	.	.
.	.	.	.	.	.	.
.	.	.	.	.	.	.
4AA	4re	16Ree/	4r	.	4r	A h
.	.	16ree	.	.	.	.
.	.	.	.	.	.	.
.	.	8ree	.	.	.	.
.	.	.	.	.	.	.
.	.	.	.	.	.	.
4EE	4re	16Ree/	4r	.	4r	.
.	.	16ree	.	.	.	.
.	.	.	.	.	.	.
.	.	8ree	.	.	.	.
.	.	.	.	.	.	.
.	.	.	.	.	.	.
=96	=96	=96	=96	=96	=96	=96
*	*head:regular	*head:x	*	*	*	*
4D	4re	16Ree/	6F	1ryy	6c a dd aa	D b
.	.	16ree	.	.	.	.
.	.	.	.	.	.	.
.	.	8ree	.	.	.	.
.	.	.	12r	.	12r	.
.	.	.	.	.	.	.
4A	4re	16Ree/	12C F A	.	12d	.
.	.	16ree	.	.	.	.
.	.	.	12r	.	12r	.
.	.	8ree	.	.	.	.
.	.	.	12r	.	12r	.
.	.	.	.	.	.	.
8FF#	4re	16Ree/	4A	.	4e f# cc#	F+ b
.	.	16ree	.	.	.	.
.	.	.	.	.	.	.
8r	.	8ree	.	.	.	.
.	.	.	.	.	.	.
.	.	.	.	.	.	.
8BB	4re	16Ree/	4r	.	4r	B 9
.	.	16ree	.	.	.	.
.	.	.	.	.	.	.
8r	.	8ree	.	.	.	.
.	.	.	.	.	.	.
.	.	.	.	.	.	.
=97	=97	=97	=97	=97	=97	=97
*	*head:regular	*head:x	*	*	*	*
6CC	4re	4ree	4r	1ryy	4r	C 6
.	.	.	.	.	.	.
.	.	.	.	.	.	.
.	.	.	.	.	.	.
12r	.	.	.	.	.	.
.	.	.	.	.	.	.
4AAA#	4re	12Ree/	4r	.	4r	.
.	.	.	.	.	.	.
.	.	12ree	.	.	.	.
.	.	.	.	.	.	.
.	.	12ree	.	.	.	.
.	.	.	.	.	.	.
4AAA	4re	12Ree/	4G	.	4c# f# b	A U
.	.	.	.	.	.	.
.	.	12ree	.	.	.	.
.	.	.	.	.	.	.
.	.	12ree	.	.	.	.
.	.	.	.	.	.	.
4BBB	4re	12Ree/	4r	.	4r	.
.	.	.	.	.	.	.
.	.	12ree	.	.	.	.
.	.	.	.	.	.	.
.	.	12ree	.	.	.	.
.	.	.	.	.	.	.
=98	=98	=98	=98	=98	=98	=98
*	*head:regular	*head:x	*	*	*	*
4DD	4re	12Ree/	4F	1ryy	4c e a dd aa	D h
.	.	.	.	.	.	.
.	.	12ree	.	.	.	.
.	.	.	.	.	.	.
.	.	12ree	.	.	.	.
.	.	.	.	.	.	.
4CC	4re	16Ree/	4r	.	4r	.
.	.	16ree	.	.	.	.
.	.	.	.	.	.	.
.	.	8ree	.	.	.	.
.	.	.	.	.	.	.
.	.	.	.	.	.	.
4FFF#	4re	12Ree/	4r	.	4r	F+ b
.	.	.	.	.	.	.
.	.	12ree	.	.	.	.
.	.	.	.	.	.	.
.	.	12ree	.	.	.	.
.	.	.	.	.	.	.
4BBB	4re	12Ree/	4r	.	4r	B 9
.	.	.	.	.	.	.
.	.	12ree	.	.	.	.
.	.	.	.	.	.	.
.	.	12ree	.	.	.	.
.	.	.	.	.	.	.
=99	=99	=99	=99	=99	=99	=99
*	*head:regular	*head:x	*	*	*	*
4CC	4re	12Ree/	4C E A	1ryy	4d	C k
.	.	.	.	.	.	.
.	.	12ree	.	.	.	.
.	.	.	.	.	.	.
.	.	12ree	.	.	.	.
.	.	.	.	.	.	.
6GGG	4re	12Ree/	4r	.	4r	.
.	.	.	.	.	.	.
.	.	12ree	.	.	.	.
.	.	.	.	.	.	.
12r	.	12ree	.	.	.	.
.	.	.	.	.	.	.
4EE	4re	12Ree/	4D G#	.	4c e b ee	E q
.	.	.	.	.	.	.
.	.	12ree	.	.	.	.
.	.	.	.	.	.	.
.	.	12ree	.	.	.	.
.	.	.	.	.	.	.
4AAA#	4re	12Ree/	4D G#	.	4c e	.
.	.	.	.	.	.	.
.	.	12ree	.	.	.	.
.	.	.	.	.	.	.
.	.	12ree	.	.	.	.
.	.	.	.	.	.	.
=100	=100	=100	=100	=100	=100	=100
*	*head:regular	*head:x	*	*	*	*
4AAA	4re	12Ree/	6F	1ryy	6c e a	D h
.	.	.	.	.	.	.
.	.	12ree	.	.	.	.
.	.	.	.	.	.	.
.	.	12ree	12r	.	12r	.
.	.	.	.	.	.	.
4FFF	4re	12Ree/	4r	.	4r	.
.	.	.	.	.	.	.
.	.	12ree	.	.	.	.
.	.	.	.	.	.	.
.	.	12ree	.	.	.	.
.	.	.	.	.	.	.
4CC#	12Rf\	12Ree/	4r	.	4r	C+ 9
.	.	.	.	.	.	.
.	12re	12ree	.	.	.	.
.	.	.	.	.	.	.
.	12re	12ree	.	.	.	.
.	.	.	.	.	.	.
4GGG#	4re	16Ree/	4r	.	4r	.
.	.	16ree	.	.	.	.
.	.	.	.	.	.	.
.	.	8ree	.	.	.	.
.	.	.	.	.	.	.
.	.	.	.	.	.	.
=101	=101	=101	=101	=101	=101	=101
*	*head:regular	*head:x	*	*	*	*
4GGG	12Rf\	12Ree/	4r	1ryy	4r	C k
.	.	.	.	.	.	.
.	12re	12ree	.	.	.	.
.	.	.	.	.	.	.
.	12re	12ree	.	.	.	.
.	.	.	.	.	.	.
4CC	4re	16Ree/	4r	.	4r	.
.	.	16ree	.	.	.	.
.	.	.	.	.	.	.
.	.	8ree	.	.	.	.
.	.	.	.	.	.	.
.	.	.	.	.	.	.
4CC#	12Rf\	12Ree/	4C# G B	.	4f#	A U
.	.	.	.	.	.	.
.	12re	12ree	.	.	.	.
.	.	.	.	.	.	.
.	12re	12ree	.	.	.	.
.	.	.	.	.	.	.
4EE	4re	12Ree/	4r	.	4r	.
.	.	.	.	.	.	.
.	.	12ree	.	.	.	.
.	.	.	.	.	.	.
.	.	12ree	.	.	.	.
.	.	.	.	.	.	.
=102	=102	=102	=102	=102	=102	=102
*	*head:regular	*head:x	*	*	*	*
4AA	4re	12Ree/	4r	1ryy	4r	D i
.	.	.	.	.	.	.
.	.	12ree	.	.	.	.
.	.	.	.	.	.	.
.	.	12ree	.	.	.	.
.	.	.	.	.	.	.
4DD#	12Rf\	16Ree/	4r	.	4r	.
.	.	16ree	.	.	.	.
.	12re	.	.	.	.	.
.	.	8ree	.	.	.	.
.	12re	.	.	.	.	.
.	.	.	.	.	.	.
4DD	4re	12Ree/	4F B	.	4d a dd aa	G 9
.	.	.	.	.	.	.
.	.	12ree	.	.	.	.
.	.	.	.	.	.	.
.	.	12ree	.	.	.	.
.	.	.	.	.	.	.
4CC	4re	16Ree/	4r	.	4r	.
.	.	16ree	.	.	.	.
.	.	.	.	.	.	.
.	.	8ree	.	.	.	.
.	.	.	.	.	.	.
.	.	.	.	.	.	.
=103	=103	=103	=103	=103	=103	=103
*	*head:regular	*head:x	*	*	*	*
4BBB	4re	12Ree/	4r	1ryy	4r	E U
.	.	.	.	.	.	.
.	.	12ree	.	.	.	.
.	.	.	.	.	.	.
.	.	12ree	.	.	.	.
.	.	.	.	.	.	.
4EE	4re	12Ree/	4r	.	4r	.
.	.	.	.	.	.	.
.	.	12ree	.	.	.	.
.	.	.	.	.	.	.
.	.	12ree	.	.	.	.
.	.	.	.	.	.	.
4AAA	4re	12Ree/	4G	.	4c# f# b	A U
.	.	.	.	.	.	.
.	.	12ree	.	.	.	.
.	.	.	.	.	.	.
.	.	12ree	.	.	.	.
.	.	.	.	.	.	.
4EEE	12Rf\	16Ree/	4r	.	4r	.
.	.	16ree	.	.	.	.
.	12re	.	.	.	.	.
.	.	8ree	.	.	.	.
.	12re	.	.	.	.	.
.	.	.	.	.	.	.
=104	=104	=104	=104	=104	=104	=104
*	*head:regular	*head:x	*	*	*	*
4DD	4re	16Ree/	4F#	1ryy	4c e b	D U
.	.	16ree	.	.	.	.
.	.	.	.	.	.	.
.	.	8ree	.	.	.	.
.	.	.	.	.	.	.
.	.	.	.	.	.	.
4FF#	4re	16Ree/	4r	.	4r	.
.	.	16ree	.	.	.	.
.	.	.	.	.	.	.
.	.	8ree	.	.	.	.
.	.	.	.	.	.	.
.	.	.	.	.	.	.
8GG	4re	4ree	4F B	.	4d a dd aa	G 9
.	.	.	.	.	.	.
.	.	.	.	.	.	.
8r	.	.	.	.	.	.
.	.	.	.	.	.	.
.	.	.	.	.	.	.
8AA	4re	4ree	4r	.	4r	.
.	.	.	.	.	.	.
.	.	.	.	.	.	.
8r	.	.	.	.	.	.
.	.	.	.	.	.	.
.	.	.	.	.	.	.
=105	=105	=105	=105	=105	=105	=105
*	*head:regular	*head:x	*	*	*	*
4C	4re	4ree	4r	1ryy	4r	C k
.	.	.	.	.	.	.
.	.	.	.	.	.	.
.	.	.	.	.	.	.
.	.	.	.	.	.	.
.	.	.	.	.	.	.
8.G	4re	16Ree/	4r	.	4r	.
.	.	16ree	.	.	.	.
.	.	.	.	.	.	.
.	.	8ree	.	.	.	.
.	.	.	.	.	.	.
16r	.	.	.	.	.	.
6AA	4re	16Ree/	4r	.	4r	A 7
.	.	16ree	.	.	.	.
.	.	.	.	.	.	.
.	.	8ree	.	.	.	.
12r	.	.	.	.	.	.
.	.	.	.	.	.	.
4EE	4re	16Ree/	4r	.	4r	.
.	.	16ree	.	.	.	.
.	.	.	.	.	.	.
.	.	8ree	.	.	.	.
.	.	.	.	.	.	.
.	.	.	.	.	.	.
=106	=106	=106	=106	=106	=106	=106
*	*head:regular	*head:x	*	*	*	*
4DD	16Rf\	16Ree/	6F	1ryy	6c a dd aa	D b
.	16re	16ree	.	.	.	.
.	.	.	.	.	.	.
.	8re	8ree	.	.	.	.
.	.	.	12r	.	12r	.
.	.	.	.	.	.	.
4GGG#	4re	16Ree/	4r	.	4r	.
.	.	16ree	.	.	.	.
.	.	.	.	.	.	.
.	.	8ree	.	.	.	.
.	.	.	.	.	.	.
.	.	.	.	.	.	.
4GGG	4re	16Ree/	4r	.	4r	G 7
.	.	16ree	.	.	.	.
.	.	.	.	.	.	.
.	.	8ree	.	.	.	.
.	.	.	.	.	.	.
.	.	.	.	.	.	.
8.CC	4re	16Ree/	4r	.	4r	.
.	.	16ree	.	.	.	.
.	.	.	.	.	.	.
.	.	8ree	.	.	.	.
.	.	.	.	.	.	.
16r	.	.	.	.	.	.
=107	=107	=107	=107	=107	=107	=107
*	*head:regular	*head:x	*	*	*	*
8CC	16Rcc\	4ree	4C E A	1ryy	4d	C k
.	16re	.	.	.	.	.
.	.	.	.	.	.	.
8r	8re	.	.	.	.	.
.	.	.	.	.	.	.
.	.	.	.	.	.	.
4AAA	4re	16Ree/	4r	.	4r	.
.	.	16ree	.	.	.	.
.	.	.	.	.	.	.
.	.	8ree	.	.	.	.
.	.	.	.	.	.	.
.	.	.	.	.	.	.
4GGG#	4re	16Ree/	4r	.	4r	E q
.	.	16ree	.	.	.	.
.	.	.	.	.	.	.
.	.	8ree	.	.	.	.
.	.	.	.	.	.	.
.	.	.	.	.	.	.
4CC#	4re	16Ree/	4r	.	4r	.
.	.	16ree	.	.	.	.
.	.	.	.	.	.	.
.	.	8ree	.	.	.	.
.	.	.	.	.	.	.
.	.	.	.	.	.	.
=108	=108	=108	=108	=108	=108	=108
*	*head:regular	*head:x	*	*	*	*
4DD	4re	16Ree/	4r	1ryy	4r	D h
.	.	16ree	.	.	.	.
.	.	.	.	.	.	.
.	.	8ree	.	.	.	.
.	.	.	.	.	.	.
.	.	.	.	.	.	.
4GG	4re	16Ree/	4r	.	4r	.
.	.	16ree	.	.	.	.
.	.	.	.	.	.	.
.	.	8ree	.	.	.	.
.	.	.	.	.	.	.
.	.	.	.	.	.	.
4GG#	4re	16Ree/	4r	.	4r	C+ t
.	.	16ree	.	.	.	.
.	.	.	.	.	.	.
.	.	8ree	.	.	.	.
.	.	.	.	.	.	.
.	.	.	.	.	.	.
4BBB	4re	16Ree/	4r	.	4r	.
.	.	16ree	.	.	.	.
.	.	.	.	.	.	.
.	.	8ree	.	.	.	.
.	.	.	.	.	.	.
.	.	.	.	.	.	.
=109	=109	=109	=109	=109	=109	=109
*	*head:regular	*head:x	*	*	*	*
4GGG	12Rf\	12Ree/	4C E A	1ryy	4d	C k
.	.	.	.	.	.	.
.	12re	12ree	.	.	.	.
.	.	.	.	.	.	.
.	12re	12ree	.	.	.	.
.	.	.	.	.	.	.
4AAA	4re	16Ree/	4r	.	4r	.
.	.	16ree	.	.	.	.
.	.	.	.	.	.	.
.	.	8ree	.	.	.	.
.	.	.	.	.	.	.
.	.	.	.	.	.	.
4CC#	12Rf\	12Ree/	4G	.	4c# e b	A 9
.	.	.	.	.	.	.
.	12re	12ree	.	.	.	.
.	.	.	.	.	.	.
.	12re	12ree	.	.	.	.
.	.	.	.	.	.	.
6AAA	4re	16Ree/	4r	.	4r	.
.	.	16ree	.	.	.	.
.	.	.	.	.	.	.
.	.	8ree	.	.	.	.
12r	.	.	.	.	.	.
.	.	.	.	.	.	.
=110	=110	=110	=110	=110	=110	=110
*	*head:regular	*head:x	*	*	*	*
4r	12Rf\	12Ree/	4r	1ryy	4r	D b
.	.	.	.	.	.	.
.	12re	12ree	.	.	.	.
.	.	.	.	.	.	.
.	12re	12ree	.	.	.	.
.	.	.	.	.	.	.
4CC	4re	12Ree/	4r	.	4r	.
.	.	.	.	.	.	.
.	.	12ree	.	.	.	.
.	.	.	.	.	.	.
.	.	12ree	.	.	.	.
.	.	.	.	.	.	.
4CC#	12Rf\	12Ree/	4E A	.	4c# f#	F+ b
.	.	.	.	.	.	.
.	12re	12ree	.	.	.	.
.	.	.	.	.	.	.
.	12re	12ree	.	.	.	.
.	.	.	.	.	.	.
8.FF#	4re	12Ree/	4r	.	4r	B 7
.	.	.	.	.	.	.
.	.	12ree	.	.	.	.
.	.	.	.	.	.	.
.	.	12ree	.	.	.	.
16r	.	.	.	.	.	.
=111	=111	=111	=111	=111	=111	=111
*	*head:regular	*head:x	*	*	*	*
8.GG	12Rf\	12Ree/	4C E A	1ryy	4d	C k
.	.	.	.	.	.	.
.	12re	12ree	.	.	.	.
.	.	.	.	.	.	.
.	12re	12ree	.	.	.	.
16r	.	.	.	.	.	.
4CC	4re	12Ree/	4r	.	4r	.
.	.	.	.	.	.	.
.	.	12ree	.	.	.	.
.	.	.	.	.	.	.
.	.	12ree	.	.	.	.
.	.	.	.	.	.	.
8DD	12Rf\	12Ree/	6F	.	6c e g	D i
.	.	.	.	.	.	.
.	12re	12ree	.	.	.	.
8r	.	.	.	.	.	.
.	12re	12ree	12r	.	12r	.
.	.	.	.	.	.	.
4FF	4re	12Ree/	4r	.	4r	C+ t
.	.	.	.	.	.	.
.	.	12ree	.	.	.	.
.	.	.	.	.	.	.
.	.	12ree	.	.	.	.
.	.	.	.	.	.	.
=112	=112	=112	=112	=112	=112	=112
*	*head:regular	*head:x	*	*	*	*
4CC	12Rf\	12Ree/	6E	1ryy	6c g a cc	C 6
.	.	.	.	.	.	.
.	12re	12ree	.	.	.	.
.	.	.	.	.	.	.
.	12re	12ree	12r	.	12r	.
.	.	.	.	.	.	.
4AAA	4re	12Ree/	4r	.	4r	.
.	.	.	.	.	.	.
.	.	12ree	.	.	.	.
.	.	.	.	.	.	.
.	.	12ree	.	.	.	.
.	.	.	.	.	.	.
8GGG#	4re	16Ree/	4D G# B	.	4f#	E 9
.	.	16ree	.	.	.	.
.	.	.	.	.	.	.
8r	.	8ree	.	.	.	.
.	.	.	.	.	.	.
.	.	.	.	.	.	.
8EEE	4re	16Ree/	4r	.	4r	.
.	.	16ree	.	.	.	.
.	.	.	.	.	.	.
8r	.	8ree	.	.	.	.
.	.	.	.	.	.	.
.	.	.	.	.	.	.
=113	=113	=113	=113	=113	=113	=113
*	*head:regular	*head:x	*	*	*	*
4AAA	4re	4ree	4r	1ryy	4r	A j
.	.	.	.	.	.	.
.	.	.	.	.	.	.
.	.	.	.	.	.	.
.	.	.	.	.	.	.
.	.	.	.	.	.	.
8.EE	4re	16Ree/	4r	.	4r	.
.	.	16ree	.	.	.	.
.	.	.	.	.	.	.
.	.	8ree	.	.	.	.
.	.	.	.	.	.	.
16r	.	.	.	.	.	.
6AA	4re	4ree	6F#	.	6c e a	.
.	.	.	.	.	.	.
.	.	.	.	.	.	.
.	.	.	.	.	.	.
12r	.	.	12r	.	12r	.
.	.	.	.	.	.	.
4E	4re	16Ree/	4r	.	4r	.
.	.	16ree	.	.	.	.
.	.	.	.	.	.	.
.	.	8ree	.	.	.	.
.	.	.	.	.	.	.
.	.	.	.	.	.	.
=114	=114	=114	=114	=114	=114	=114
*	*head:regular	*head:x	*	*	*	*
4C	4re	4ree	4r	1ryy	4r	F 9
.	.	.	.	.	.	.
.	.	.	.	.	.	.
.	.	.	.	.	.	.
.	.	.	.	.	.	.
.	.	.	.	.	.	.
4AA	4re	16Ree/	4D# A	.	4c g	.
.	.	16ree	.	.	.	.
.	.	.	.	.	.	.
.	.	8ree	.	.	.	.
.	.	.	.	.	.	.
.	.	.	.	.	.	.
4AA	4re	4ree	4r	.	4r	.
.	.	.	.	.	.	.
.	.	.	.	.	.	.
.	.	.	.	.	.	.
.	.	.	.	.	.	.
.	.	.	.	.	.	.
8.DD#	4re	16Ree/	4r	.	4r	.
.	.	16ree	.	.	.	.
.	.	.	.	.	.	.
.	.	8ree	.	.	.	.
.	.	.	.	.	.	.
16r	.	.	.	.	.	.
=115	=115	=115	=115	=115	=115	=115
*	*head:regular	*head:x	*	*	*	*
8DD	4re	4ree	4F#	1ryy	4c e b	D U
.	.	.	.	.	.	.
.	.	.	.	.	.	.
8r	.	.	.	.	.	.
.	.	.	.	.	.	.
.	.	.	.	.	.	.
4BBB	4re	16Ree/	4r	.	4r	.
.	.	16ree	.	.	.	.
.	.	.	.	.	.	.
.	.	8ree	.	.	.	.
.	.	.	.	.	.	.
.	.	.	.	.	.	.
4AAA	4re	4ree	4r	.	4r	.
.	.	.	.	.	.	.
.	.	.	.	.	.	.
.	.	.	.	.	.	.
.	.	.	.	.	.	.
.	.	.	.	.	.	.
4DD	4re	16Ree/	4r	.	4r	.
.	.	16ree	.	.	.	.
.	.	.	.	.	.	.
.	.	8ree	.	.	.	.
.	.	.	.	.	.	.
.	.	.	.	.	.	.
=116	=116	=116	=116	=116	=116	=116
*	*head:regular	*head:x	*	*	*	*
4CC#	4re	4ree	4r	1ryy	4r	A U
.	.	.	.	.	.	.
.	.	.	.	.	.	.
.	.	.	.	.	.	.
.	.	.	.	.	.	.
.	.	.	.	.	.	.
4EE	4re	16Ree/	4r	.	4r	.
.	.	16ree	.	.	.	.
.	.	.	.	.	.	.
.	.	8ree	.	.	.	.
.	.	.	.	.	.	.
.	.	.	.	.	.	.
4AAA	12Rf\	4ree	4r	.	4r	.
.	.	.	.	.	.	.
.	12re	.	.	.	.	.
.	.	.	.	.	.	.
.	12re	.	.	.	.	.
.	.	.	.	.	.	.
4BBB	4re	16Ree/	12G	.	12c# f# b	.
.	.	16ree	.	.	.	.
.	.	.	12r	.	12r	.
.	.	8ree	.	.	.	.
.	.	.	12r	.	12r	.
.	.	.	.	.	.	.
=117	=117	=117	=117	=117	=117	=117
*	*head:regular	*head:x	*	*	*	*
6BBB	4re	4ree	4r	1ryy	4r	G k
.	.	.	.	.	.	.
.	.	.	.	.	.	.
.	.	.	.	.	.	.
12r	.	.	.	.	.	.
.	.	.	.	.	.	.
8.GG	4re	16Ree/	4G B	.	4e a	.
.	.	16ree	.	.	.	.
.	.	.	.	.	.	.
.	.	8ree	.	.	.	.
.	.	.	.	.	.	.
16r	.	.	.	.	.	.
4GG#	4re	4ree	4r	.	4r	E 9
.	.	.	.	.	.	.
.	.	.	.	.	.	.
.	.	.	.	.	.	.
.	.	.	.	.	.	.
.	.	.	.	.	.	.
4AAA#	4re	16Ree/	4r	.	4r	.
.	.	16ree	.	.	.	.
.	.	.	.	.	.	.
.	.	8ree	.	.	.	.
.	.	.	.	.	.	.
.	.	.	.	.	.	.
=118	=118	=118	=118	=118	=118	=118
*	*head:regular	*head:x	*	*	*	*
8AAA	4re	4ree	4r	1ryy	4r	A i
.	.	.	.	.	.	.
.	.	.	.	.	.	.
8r	.	.	.	.	.	.
.	.	.	.	.	.	.
.	.	.	.	.	.	.
4CC	4re	16Ree/	4r	.	4r	.
.	.	16ree	.	.	.	.
.	.	.	.	.	.	.
.	.	8ree	.	.	.	.
.	.	.	.	.	.	.
.	.	.	.	.	.	.
4CC	4re	4ree	6F#	.	6c f a#	G+ U
.	.	.	.	.	.	.
.	.	.	.	.	.	.
.	.	.	.	.	.	.
.	.	.	12r	.	12r	.
.	.	.	.	.	.	.
6DD#	4re	16Ree/	4r	.	4r	.
.	.	16ree	.	.	.	.
.	.	.	.	.	.	.
.	.	8ree	.	.	.	.
12r	.	.	.	.	.	.
.	.	.	.	.	.	.
=119	=119	=119	=119	=119	=119	=119
*	*head:regular	*head:x	*	*	*	*
4GGG	4re	4ree	4F B	1ryy	4d a	G 9
.	.	.	.	.	.	.
.	.	.	.	.	.	.
.	.	.	.	.	.	.
.	.	.	.	.	.	.
.	.	.	.	.	.	.
4AAA	4re	16Ree/	4r	.	4r	.
.	.	16ree	.	.	.	.
.	.	.	.	.	.	.
.	.	8ree	.	.	.	.
.	.	.	.	.	.	.
.	.	.	.	.	.	.
4CC#	4re	4ree	4r	.	4r	A 9
.	.	.	.	.	.	.
.	.	.	.	.	.	.
.	.	.	.	.	.	.
.	.	.	.	.	.	.
.	.	.	.	.	.	.
4EE	12Rf\	16Ree/	4r	.	4r	.
.	.	16ree	.	.	.	.
.	12re	.	.	.	.	.
.	.	8ree	.	.	.	.
.	12re	.	.	.	.	.
.	.	.	.	.	.	.
=120	=120	=120	=120	=120	=120	=120
*	*head:regular	*head:x	*	*	*	*
4FF	4re	4ree	4r	1ryy	4r	D a
.	.	.	.	.	.	.
.	.	.	.	.	.	.
.	.	.	.	.	.	.
.	.	.	.	.	.	.
.	.	.	.	.	.	.
4AA	4re	16Ree/	6F A	.	6d a	.
.	.	16ree	.	.	.	.
.	.	.	.	.	.	.
.	.	8ree	.	.	.	.
.	.	.	12r	.	12r	.
.	.	.	.	.	.	.
8CC#	4re	4ree	4E A	.	4c# g#	F+ h
.	.	.	.	.	.	.
.	.	.	.	.	.	.
8r	.	.	.	.	.	.
.	.	.	.	.	.	.
.	.	.	.	.	.	.
8BBB	4re	4ree	4r	.	4r	B 7
.	.	.	.	.	.	.
.	.	.	.	.	.	.
8r	.	.	.	.	.	.
.	.	.	.	.	.	.
.	.	.	.	.	.	.
=121	=121	=121	=121	=121	=121	=121
*	*head:regular	*head:x	*	*	*	*
6CC	4re	4ree	4r	1ryy	4r	C 6
.	.	.	.	.	.	.
.	.	.	.	.	.	.
.	.	.	.	.	.	.
12r	.	.	.	.	.	.
.	.	.	.	.	.	.
8.GG	4re	12Ree/	4r	.	4r	.
.	.	.	.	.	.	.
.	.	12ree	.	.	.	.
.	.	.	.	.	.	.
.	.	12ree	.	.	.	.
16r	.	.	.	.	.	.
4AAA	4re	12Ree/	4G	.	4c# f# b	A U
.	.	.	.	.	.	.
.	.	12ree	.	.	.	.
.	.	.	.	.	.	.
.	.	12ree	.	.	.	.
.	.	.	.	.	.	.
4CC#	4re	12Ree/	4r	.	4r	.
.	.	.	.	.	.	.
.	.	12ree	.	.	.	.
.	.	.	.	.	.	.
.	.	12ree	.	.	.	.
.	.	.	.	.	.	.
=122	=122	=122	=122	=122	=122	=122
*	*head:regular	*head:x	*	*	*	*
8DD	4re	12Ree/	4r	1ryy	4r	D a
.	.	.	.	.	.	.
.	.	12ree	.	.	.	.
8r	.	.	.	.	.	.
.	.	12ree	.	.	.	.
.	.	.	.	.	.	.
4AAA	4re	12Ree/	4r	.	4r	.
.	.	.	.	.	.	.
.	.	12ree	.	.	.	.
.	.	.	.	.	.	.
.	.	12ree	.	.	.	.
.	.	.	.	.	.	.
4FF#	4re	12Ree/	4A	.	4e g# b	F+ i
.	.	.	.	.	.	.
.	.	12ree	.	.	.	.
.	.	.	.	.	.	.
.	.	12ree	.	.	.	.
.	.	.	.	.	.	.
6AA	4re	12Ree/	4r	.	4r	B 9
.	.	.	.	.	.	.
.	.	12ree	.	.	.	.
.	.	.	.	.	.	.
12r	.	12ree	.	.	.	.
.	.	.	.	.	.	.
=123	=123	=123	=123	=123	=123	=123
*	*head:regular	*head:x	*	*	*	*
4C	4re	12Ree/	4E A	1ryy	4d g	C k
.	.	.	.	.	.	.
.	.	12ree	.	.	.	.
.	.	.	.	.	.	.
.	.	12ree	.	.	.	.
.	.	.	.	.	.	.
4AA	4re	12Ree/	4r	.	4r	.
.	.	.	.	.	.	.
.	.	12ree	.	.	.	.
.	.	.	.	.	.	.
.	.	12ree	.	.	.	.
.	.	.	.	.	.	.
4EE	4re	12Ree/	6D G#	.	6c e	E q
.	.	.	.	.	.	.
.	.	12ree	.	.	.	.
.	.	.	.	.	.	.
.	.	12ree	12r	.	12r	.
.	.	.	.	.	.	.
4CC	4re	12Ree/	4r	.	4r	.
.	.	.	.	.	.	.
.	.	12ree	.	.	.	.
.	.	.	.	.	.	.
.	.	12ree	.	.	.	.
.	.	.	.	.	.	.
=124	=124	=124	=124	=124	=124	=124
*	*head:regular	*head:x	*	*	*	*
4CC	4re	12Ree/	6F A	1ryy	6d g	F k
.	.	.	.	.	.	.
.	.	12ree	.	.	.	.
.	.	.	.	.	.	.
.	.	12ree	12r	.	12r	.
.	.	.	.	.	.	.
4FF	4re	12Ree/	4r	.	4r	.
.	.	.	.	.	.	.
.	.	12ree	.	.	.	.
.	.	.	.	.	.	.
.	.	12ree	.	.	.	.
.	.	.	.	.	.	.
4FFF	4re	12Ree/	4r	.	4r	F Z
.	.	.	.	.	.	.
.	.	12ree	.	.	.	.
.	.	.	.	.	.	.
.	.	12ree	.	.	.	.
.	.	.	.	.	.	.
4CC	4re	16Ree/	4r	.	4r	.
.	.	16ree	.	.	.	.
.	.	.	.	.	.	.
.	.	8ree	.	.	.	.
.	.	.	.	.	.	.
.	.	.	.	.	.	.
=125	=125	=125	=125	=125	=125	=125
*	*head:regular	*head:x	*	*	*	*
4EEE	12Rf\	12Ree/	6E A	1ryy	6d g	C k
.	.	.	.	.	.	.
.	12re	12ree	.	.	.	.
.	.	.	.	.	.	.
.	12re	12ree	12r	.	12r	.
.	.	.	.	.	.	.
4GGG#	4re	16Ree/	4r	.	4r	.
.	.	16ree	.	.	.	.
.	.	.	.	.	.	.
.	.	8ree	.	.	.	.
.	.	.	.	.	.	.
.	.	.	.	.	.	.
6AAA	12Rf\	12Ree/	6C# G B	.	6e	A 9
.	.	.	.	.	.	.
.	12re	12ree	.	.	.	.
.	.	.	.	.	.	.
12r	12re	12ree	12r	.	12r	.
.	.	.	.	.	.	.
4EEE	4re	16Ree/	4r	.	4r	.
.	.	16ree	.	.	.	.
.	.	.	.	.	.	.
.	.	8ree	.	.	.	.
.	.	.	.	.	.	.
.	.	.	.	.	.	.
=126	=126	=126	=126	=126	=126	=126
*	*head:regular	*head:x	*	*	*	*
4DD	12Rf\	12Ree/	4r	1ryy	4r	D h
.	.	.	.	.	.	.
.	12re	12ree	.	.	.	.
.	.	.	.	.	.	.
.	12re	12ree	.	.	.	.
.	.	.	.	.	.	.
4EE	4re	12Ree/	4r	.	4r	.
.	.	.	.	.	.	.
.	.	12ree	.	.	.	.
.	.	.	.	.	.	.
.	.	12ree	.	.	.	.
.	.	.	.	.	.	.
4AA	12Rf\	12Ree/	4E A	.	4c# g#	F+ h
.	.	.	.	.	.	.
.	12re	12ree	.	.	.	.
.	.	.	.	.	.	.
.	12re	12ree	.	.	.	.
.	.	.	.	.	.	.
8.BB	4re	12Ree/	4r	.	4r	B 7
.	.	.	.	.	.	.
.	.	12ree	.	.	.	.
.	.	.	.	.	.	.
.	.	12ree	.	.	.	.
16r	.	.	.	.	.	.
=127	=127	=127	=127	=127	=127	=127
*	*head:regular	*head:x	*	*	*	*
8EEE	12Rf\	12Ree/	4r	1ryy	4r	C 6
.	.	.	.	.	.	.
.	12re	12ree	.	.	.	.
8r	.	.	.	.	.	.
.	12re	12ree	.	.	.	.
.	.	.	.	.	.	.
8.AAA	4re	12Ree/	4r	.	4r	.
.	.	.	.	.	.	.
.	.	12ree	.	.	.	.
.	.	.	.	.	.	.
.	.	12ree	.	.	.	.
16r	.	.	.	.	.	.
4CC	12Rf\	12Ree/	4r	.	4r	A h
.	.	.	.	.	.	.
.	12re	12ree	.	.	.	.
.	.	.	.	.	.	.
.	12re	12ree	.	.	.	.
.	.	.	.	.	.	.
4EE	4re	12Ree/	4r	.	4r	.
.	.	.	.	.	.	.
.	.	12ree	.	.	.	.
.	.	.	.	.	.	.
.	.	12ree	.	.	.	.
.	.	.	.	.	.	.
==	==	==	==	==	==	==
*-	*-	*-	*-	*-	*-	*-
!!!system-decoration: {(s1,s2)}s3,s4e